(Vector engraving generated by engine_v2)
G21
G90
G0 Z5 F3000
G0 X55.8 Y130.5 F6000
G1 Z0 F1000
G1 X55.8 Y130.7 F1500
G0 Z5 F3000
G0 X55.4 Y130.4 F6000
G1 Z0 F1000
G1 X55.4 Y130.7 F1500
G0 Z5 F3000
G0 X50.6 Y130.3 F6000
G1 Z0 F1000
G1 X50.7 Y130.2 F1500
G1 X50.8 Y130.3 F1500
G1 X50.8 Y130.4 F1500
G1 X50.7 Y130.5 F1500
G1 X50.6 Y130.4 F1500
G0 Z5 F3000
G0 X60.1 Y130.1 F6000
G1 Z0 F1000
G1 X60.2 Y130.0 F1500
G1 X60.3 Y130.1 F1500
G1 X60.3 Y130.2 F1500
G1 X60.2 Y130.3 F1500
G1 X60.1 Y130.2 F1500
G0 Z5 F3000
G0 X58.0 Y130.0 F6000
G1 Z0 F1000
G1 X58.0 Y130.4 F1500
G0 Z5 F3000
G0 X51.3 Y129.5 F6000
G1 Z0 F1000
G1 X51.4 Y129.4 F1500
G1 X51.5 Y129.5 F1500
G1 X51.5 Y129.7 F1500
G1 X51.4 Y129.8 F1500
G1 X51.4 Y129.9 F1500
G1 X51.2 Y130.1 F1500
G1 X51.2 Y130.2 F1500
G1 X51.1 Y130.3 F1500
G1 X51.1 Y130.4 F1500
G1 X50.9 Y130.6 F1500
G1 X50.8 Y130.5 F1500
G1 X50.8 Y130.4 F1500
G1 X50.9 Y130.3 F1500
G1 X50.9 Y130.2 F1500
G1 X51.0 Y130.1 F1500
G1 X51.0 Y130.0 F1500
G1 X51.2 Y129.8 F1500
G1 X51.2 Y129.7 F1500
G1 X51.3 Y129.6 F1500
G0 Z5 F3000
G0 X51.2 Y129.3 F6000
G1 Z0 F1000
G1 X51.3 Y129.4 F1500
G1 X51.3 Y129.5 F1500
G1 X51.2 Y129.6 F1500
G1 X51.2 Y129.7 F1500
G1 X51.1 Y129.8 F1500
G1 X51.1 Y129.9 F1500
G1 X50.9 Y130.1 F1500
G1 X50.9 Y130.2 F1500
G1 X50.8 Y130.3 F1500
G1 X50.7 Y130.2 F1500
G1 X50.7 Y130.0 F1500
G1 X50.9 Y129.8 F1500
G1 X50.9 Y129.7 F1500
G1 X51.0 Y129.6 F1500
G1 X51.0 Y129.5 F1500
G0 Z5 F3000
G0 X51.4 Y129.3 F6000
G1 Z0 F1000
G1 X51.5 Y129.2 F1500
G1 X51.6 Y129.3 F1500
G1 X51.6 Y129.4 F1500
G1 X51.5 Y129.5 F1500
G1 X51.4 Y129.4 F1500
G0 Z5 F3000
G0 X53.8 Y129.2 F6000
G1 Z0 F1000
G1 X53.7 Y129.3 F1500
G1 X53.7 Y129.5 F1500
G1 X53.6 Y129.6 F1500
G1 X53.6 Y130.5 F1500
G1 X53.6 Y129.6 F1500
G1 X53.7 Y129.5 F1500
G1 X53.7 Y129.4 F1500
G1 X53.9 Y129.2 F1500
G0 Z5 F3000
G0 X51.5 Y129.1 F6000
G1 Z0 F1000
G1 X51.6 Y129.0 F1500
G1 X51.7 Y129.1 F1500
G1 X51.7 Y129.2 F1500
G1 X51.6 Y129.3 F1500
G1 X51.5 Y129.2 F1500
G0 Z5 F3000
G0 X57.4 Y129.0 F6000
G1 Z0 F1000
G1 X57.3 Y129.1 F1500
G1 X57.1 Y129.1 F1500
G1 X56.9 Y129.3 F1500
G1 X56.8 Y129.3 F1500
G1 X56.2 Y129.9 F1500
G1 X56.2 Y130.2 F1500
G1 X56.1 Y130.3 F1500
G1 X56.1 Y130.7 F1500
G1 X56.1 Y130.3 F1500
G1 X56.2 Y130.2 F1500
G1 X56.2 Y130.0 F1500
G1 X56.9 Y129.3 F1500
G1 X57.0 Y129.3 F1500
G1 X57.2 Y129.1 F1500
G1 X57.3 Y129.1 F1500
G1 X57.4 Y129.2 F1500
G1 X57.4 Y129.8 F1500
G1 X57.5 Y129.9 F1500
G1 X57.5 Y130.2 F1500
G1 X57.6 Y130.3 F1500
G1 X57.6 Y130.7 F1500
G1 X57.6 Y130.3 F1500
G1 X57.5 Y130.2 F1500
G1 X57.5 Y129.9 F1500
G1 X57.4 Y129.8 F1500
G0 Z5 F3000
G0 X54.1 Y128.9 F6000
G1 Z0 F1000
G1 X54.0 Y129.0 F1500
G1 X54.1 Y128.9 F1500
G1 X54.2 Y129.0 F1500
G1 X54.2 Y129.1 F1500
G1 X54.1 Y129.2 F1500
G1 X54.1 Y130.1 F1500
G1 X54.0 Y130.2 F1500
G1 X54.0 Y130.4 F1500
G1 X53.9 Y130.5 F1500
G1 X53.9 Y130.7 F1500
G1 X53.9 Y130.5 F1500
G1 X54.0 Y130.4 F1500
G1 X54.0 Y130.2 F1500
G1 X54.1 Y130.1 F1500
G1 X54.1 Y129.2 F1500
G1 X54.2 Y129.1 F1500
G1 X54.2 Y128.9 F1500
G0 Z5 F3000
G0 X51.4 Y128.8 F6000
G1 Z0 F1000
G1 X51.5 Y128.7 F1500
G1 X51.6 Y128.8 F1500
G1 X51.6 Y129.0 F1500
G1 X51.4 Y129.2 F1500
G1 X51.4 Y129.3 F1500
G1 X51.3 Y129.4 F1500
G1 X51.2 Y129.3 F1500
G1 X51.2 Y129.1 F1500
G1 X51.4 Y128.9 F1500
G0 Z5 F3000
G0 X60.0 Y128.6 F6000
G1 Z0 F1000
G1 X60.0 Y128.7 F1500
G1 X59.9 Y128.8 F1500
G1 X59.9 Y128.9 F1500
G1 X59.9 Y128.8 F1500
G1 X60.0 Y128.7 F1500
G0 Z5 F3000
G0 X53.7 Y128.6 F6000
G1 Z0 F1000
G1 X53.8 Y128.5 F1500
G1 X53.9 Y128.5 F1500
G1 X54.0 Y128.6 F1500
G1 X53.9 Y128.7 F1500
G1 X53.8 Y128.7 F1500
G0 Z5 F3000
G0 X55.6 Y127.9 F6000
G1 Z0 F1000
G1 X55.7 Y128.0 F1500
G1 X55.7 Y128.1 F1500
G1 X55.6 Y128.2 F1500
G1 X55.6 Y128.3 F1500
G1 X55.5 Y128.4 F1500
G1 X55.5 Y128.5 F1500
G1 X55.4 Y128.6 F1500
G1 X55.4 Y128.7 F1500
G1 X55.3 Y128.8 F1500
G1 X55.3 Y128.9 F1500
G1 X55.2 Y129.0 F1500
G1 X55.2 Y129.2 F1500
G1 X55.1 Y129.3 F1500
G1 X55.0 Y129.2 F1500
G1 X55.0 Y128.9 F1500
G1 X55.1 Y128.8 F1500
G1 X55.1 Y128.7 F1500
G1 X55.2 Y128.6 F1500
G1 X55.2 Y128.5 F1500
G1 X55.3 Y128.4 F1500
G1 X55.3 Y128.3 F1500
G1 X55.4 Y128.2 F1500
G1 X55.4 Y128.1 F1500
G0 Z5 F3000
G0 X58.1 Y127.9 F6000
G1 Z0 F1000
G1 X58.1 Y128.1 F1500
G1 X58.0 Y128.2 F1500
G1 X58.0 Y128.5 F1500
G1 X57.9 Y128.6 F1500
G1 X57.9 Y129.4 F1500
G1 X57.8 Y129.5 F1500
G1 X57.8 Y129.8 F1500
G1 X57.7 Y129.9 F1500
G1 X57.8 Y130.0 F1500
G1 X57.8 Y130.2 F1500
G1 X57.8 Y129.5 F1500
G1 X57.9 Y129.4 F1500
G1 X57.9 Y128.6 F1500
G1 X58.0 Y128.5 F1500
G1 X58.0 Y128.2 F1500
G1 X58.1 Y128.1 F1500
G0 Z5 F3000
G0 X53.7 Y127.9 F6000
G1 Z0 F1000
G1 X53.6 Y128.0 F1500
G1 X53.6 Y128.1 F1500
G1 X53.5 Y128.2 F1500
G1 X53.5 Y128.3 F1500
G1 X53.3 Y128.5 F1500
G1 X53.3 Y128.6 F1500
G1 X53.2 Y128.7 F1500
G1 X53.4 Y128.5 F1500
G1 X53.4 Y128.4 F1500
G1 X53.6 Y128.2 F1500
G1 X53.6 Y128.0 F1500
G0 Z5 F3000
G0 X58.0 Y127.7 F6000
G1 Z0 F1000
G1 X57.8 Y127.9 F1500
G1 X57.8 Y128.0 F1500
G1 X57.4 Y128.4 F1500
G1 X57.2 Y128.4 F1500
G1 X57.3 Y128.5 F1500
G1 X57.2 Y128.6 F1500
G1 X57.1 Y128.6 F1500
G1 X57.1 Y128.8 F1500
G1 X57.8 Y128.1 F1500
G1 X57.8 Y128.0 F1500
G1 X57.9 Y127.9 F1500
G1 X57.9 Y127.8 F1500
G0 Z5 F3000
G0 X55.8 Y127.6 F6000
G1 Z0 F1000
G1 X55.9 Y127.5 F1500
G1 X56.0 Y127.6 F1500
G1 X55.9 Y127.7 F1500
G0 Z5 F3000
G0 X59.0 Y127.4 F6000
G1 Z0 F1000
G1 X59.0 Y127.5 F1500
G0 Z5 F3000
G0 X51.6 Y127.4 F6000
G1 Z0 F1000
G1 X51.7 Y127.3 F1500
G1 X51.8 Y127.4 F1500
G1 X51.8 Y127.5 F1500
G1 X51.7 Y127.6 F1500
G1 X51.6 Y127.5 F1500
G0 Z5 F3000
G0 X64.5 Y127.3 F6000
G1 Z0 F1000
G1 X64.5 Y127.4 F1500
G0 Z5 F3000
G0 X56.8 Y127.2 F6000
G1 Z0 F1000
G1 X56.9 Y127.1 F1500
G1 X57.0 Y127.2 F1500
G1 X57.0 Y127.4 F1500
G1 X56.9 Y127.5 F1500
G1 X56.9 Y127.6 F1500
G1 X56.8 Y127.7 F1500
G1 X56.7 Y127.6 F1500
G1 X56.7 Y127.4 F1500
G1 X56.8 Y127.3 F1500
G0 Z5 F3000
G0 X56.6 Y127.2 F6000
G1 Z0 F1000
G1 X56.7 Y127.1 F1500
G1 X56.8 Y127.2 F1500
G1 X56.8 Y127.3 F1500
G1 X56.7 Y127.4 F1500
G1 X56.6 Y127.3 F1500
G0 Z5 F3000
G0 X56.1 Y127.2 F6000
G1 Z0 F1000
G1 X55.7 Y127.6 F1500
G1 X55.7 Y127.7 F1500
G1 X55.5 Y127.9 F1500
G1 X55.5 Y128.0 F1500
G1 X55.4 Y128.1 F1500
G1 X55.4 Y128.2 F1500
G1 X55.3 Y128.3 F1500
G1 X55.3 Y128.4 F1500
G1 X55.1 Y128.6 F1500
G1 X55.1 Y128.8 F1500
G1 X55.0 Y128.9 F1500
G1 X55.0 Y129.2 F1500
G1 X54.9 Y129.3 F1500
G1 X54.9 Y129.6 F1500
G1 X54.9 Y129.3 F1500
G1 X55.0 Y129.2 F1500
G1 X55.1 Y129.3 F1500
G1 X55.1 Y129.7 F1500
G1 X55.0 Y129.8 F1500
G1 X55.0 Y130.0 F1500
G1 X55.0 Y129.8 F1500
G1 X55.1 Y129.7 F1500
G1 X55.1 Y129.3 F1500
G1 X55.2 Y129.2 F1500
G1 X55.2 Y129.0 F1500
G1 X55.3 Y128.9 F1500
G1 X55.3 Y128.8 F1500
G1 X55.5 Y128.6 F1500
G1 X55.5 Y128.5 F1500
G1 X55.6 Y128.4 F1500
G1 X55.6 Y128.3 F1500
G1 X55.7 Y128.2 F1500
G1 X55.7 Y128.1 F1500
G1 X55.8 Y128.0 F1500
G1 X55.8 Y127.9 F1500
G1 X55.7 Y128.0 F1500
G1 X55.6 Y127.9 F1500
G1 X55.6 Y127.8 F1500
G1 X55.8 Y127.6 F1500
G1 X55.9 Y127.7 F1500
G1 X56.0 Y127.6 F1500
G1 X55.9 Y127.5 F1500
G1 X55.9 Y127.4 F1500
G1 X56.1 Y127.2 F1500
G1 X56.2 Y127.2 F1500
G0 Z5 F3000
G0 X56.7 Y127.1 F6000
G1 Z0 F1000
G1 X56.8 Y127.0 F1500
G1 X56.9 Y127.1 F1500
G1 X56.8 Y127.2 F1500
G0 Z5 F3000
G0 X55.1 Y127.0 F6000
G1 Z0 F1000
G1 X55.2 Y126.9 F1500
G1 X55.3 Y127.0 F1500
G1 X55.4 Y127.0 F1500
G1 X55.5 Y127.1 F1500
G1 X55.4 Y127.2 F1500
G1 X55.3 Y127.2 F1500
G1 X55.2 Y127.3 F1500
G1 X55.1 Y127.3 F1500
G1 X54.6 Y127.8 F1500
G1 X54.5 Y127.7 F1500
G1 X54.6 Y127.8 F1500
G1 X54.5 Y127.9 F1500
G1 X54.4 Y127.9 F1500
G1 X54.4 Y128.0 F1500
G1 X54.3 Y128.1 F1500
G1 X54.2 Y128.0 F1500
G1 X54.0 Y128.0 F1500
G1 X53.9 Y127.9 F1500
G1 X54.0 Y127.8 F1500
G1 X54.1 Y127.8 F1500
G1 X54.5 Y127.4 F1500
G1 X54.6 Y127.5 F1500
G1 X54.5 Y127.4 F1500
G1 X54.6 Y127.3 F1500
G1 X54.8 Y127.3 F1500
G1 X55.0 Y127.1 F1500
G1 X55.1 Y127.1 F1500
G0 Z5 F3000
G0 X54.7 Y127.0 F6000
G1 Z0 F1000
G1 X54.8 Y126.9 F1500
G1 X55.0 Y127.1 F1500
G1 X54.8 Y127.3 F1500
G1 X54.5 Y127.3 F1500
G1 X54.0 Y127.8 F1500
G1 X53.9 Y127.8 F1500
G1 X53.7 Y127.6 F1500
G1 X53.7 Y127.5 F1500
G1 X53.8 Y127.4 F1500
G1 X53.9 Y127.4 F1500
G1 X54.0 Y127.3 F1500
G1 X54.1 Y127.4 F1500
G1 X54.0 Y127.3 F1500
G1 X54.2 Y127.1 F1500
G1 X54.3 Y127.1 F1500
G1 X54.4 Y127.0 F1500
G0 Z5 F3000
G0 X57.8 Y126.9 F6000
G1 Z0 F1000
G1 X57.8 Y127.0 F1500
G1 X57.6 Y127.2 F1500
G1 X57.5 Y127.2 F1500
G1 X57.3 Y127.4 F1500
G1 X57.4 Y127.4 F1500
G1 X57.7 Y127.1 F1500
G1 X57.8 Y127.1 F1500
G1 X57.8 Y127.0 F1500
G1 X57.9 Y126.9 F1500
G0 Z5 F3000
G0 X53.5 Y126.9 F6000
G1 Z0 F1000
G1 X53.6 Y126.8 F1500
G1 X53.7 Y126.8 F1500
G1 X53.8 Y126.9 F1500
G1 X53.7 Y127.0 F1500
G1 X53.6 Y127.0 F1500
G0 Z5 F3000
G0 X61.0 Y126.7 F6000
G1 Z0 F1000
G1 X61.0 Y126.8 F1500
G1 X60.9 Y126.9 F1500
G1 X60.9 Y127.0 F1500
G1 X60.8 Y127.1 F1500
G1 X60.8 Y127.2 F1500
G1 X60.7 Y127.3 F1500
G1 X60.7 Y127.4 F1500
G1 X60.6 Y127.5 F1500
G1 X60.6 Y127.6 F1500
G1 X60.6 Y127.5 F1500
G1 X60.7 Y127.4 F1500
G1 X60.7 Y127.3 F1500
G1 X60.8 Y127.2 F1500
G1 X60.8 Y127.1 F1500
G1 X60.9 Y127.0 F1500
G1 X60.9 Y126.9 F1500
G1 X61.0 Y126.8 F1500
G0 Z5 F3000
G0 X55.8 Y126.7 F6000
G1 Z0 F1000
G1 X55.8 Y126.8 F1500
G1 X55.9 Y126.7 F1500
G0 Z5 F3000
G0 X53.7 Y126.7 F6000
G1 Z0 F1000
G1 X53.8 Y126.6 F1500
G1 X54.0 Y126.6 F1500
G1 X54.1 Y126.7 F1500
G1 X53.9 Y126.9 F1500
G1 X53.8 Y126.9 F1500
G1 X53.7 Y126.8 F1500
G0 Z5 F3000
G0 X59.3 Y126.5 F6000
G1 Z0 F1000
G1 X59.4 Y126.6 F1500
G1 X59.3 Y126.7 F1500
G1 X59.3 Y127.1 F1500
G1 X59.2 Y127.2 F1500
G1 X59.1 Y127.2 F1500
G1 X59.2 Y127.3 F1500
G1 X59.2 Y127.7 F1500
G1 X59.3 Y127.8 F1500
G1 X59.3 Y128.3 F1500
G1 X59.4 Y128.4 F1500
G1 X59.4 Y128.7 F1500
G1 X59.3 Y128.8 F1500
G1 X59.3 Y128.9 F1500
G1 X59.1 Y129.1 F1500
G1 X59.0 Y129.1 F1500
G1 X58.7 Y129.4 F1500
G1 X58.6 Y129.4 F1500
G1 X58.5 Y129.3 F1500
G1 X58.5 Y129.2 F1500
G1 X58.5 Y129.3 F1500
G1 X58.6 Y129.4 F1500
G1 X58.5 Y129.5 F1500
G1 X58.4 Y129.5 F1500
G1 X58.3 Y129.6 F1500
G1 X58.2 Y129.6 F1500
G1 X58.1 Y129.5 F1500
G1 X58.1 Y129.1 F1500
G1 X58.2 Y129.0 F1500
G1 X58.2 Y128.8 F1500
G1 X58.3 Y128.7 F1500
G1 X58.3 Y128.4 F1500
G1 X58.5 Y128.2 F1500
G1 X58.6 Y128.2 F1500
G1 X58.6 Y128.0 F1500
G1 X58.7 Y127.9 F1500
G1 X58.7 Y127.7 F1500
G1 X58.8 Y127.6 F1500
G1 X58.7 Y127.5 F1500
G1 X58.7 Y127.3 F1500
G1 X58.8 Y127.2 F1500
G1 X58.8 Y127.1 F1500
G1 X58.9 Y127.0 F1500
G1 X59.0 Y127.0 F1500
G1 X59.1 Y126.9 F1500
G1 X59.1 Y126.8 F1500
G1 X59.1 Y126.9 F1500
G1 X59.0 Y127.0 F1500
G1 X58.8 Y127.0 F1500
G1 X58.7 Y127.1 F1500
G1 X58.8 Y127.2 F1500
G1 X58.6 Y127.4 F1500
G1 X58.7 Y127.5 F1500
G1 X58.7 Y127.9 F1500
G1 X58.6 Y128.0 F1500
G1 X58.6 Y128.1 F1500
G1 X58.5 Y128.2 F1500
G1 X58.4 Y128.2 F1500
G1 X58.3 Y128.1 F1500
G1 X58.3 Y128.0 F1500
G1 X58.4 Y127.9 F1500
G1 X58.4 Y127.6 F1500
G1 X58.4 Y127.9 F1500
G1 X58.3 Y128.0 F1500
G1 X58.3 Y128.1 F1500
G1 X58.4 Y128.2 F1500
G1 X58.3 Y128.3 F1500
G1 X58.3 Y128.7 F1500
G1 X58.2 Y128.8 F1500
G1 X58.2 Y129.0 F1500
G1 X58.1 Y129.1 F1500
G1 X58.1 Y129.5 F1500
G1 X58.2 Y129.6 F1500
G1 X58.4 Y129.6 F1500
G1 X58.6 Y129.4 F1500
G1 X58.8 Y129.4 F1500
G1 X58.9 Y129.5 F1500
G1 X58.8 Y129.6 F1500
G1 X58.7 Y129.6 F1500
G1 X58.5 Y129.8 F1500
G1 X58.4 Y129.8 F1500
G1 X58.3 Y129.9 F1500
G1 X58.2 Y129.9 F1500
G1 X58.3 Y129.9 F1500
G1 X58.4 Y129.8 F1500
G1 X58.5 Y129.8 F1500
G1 X58.7 Y129.6 F1500
G1 X58.8 Y129.6 F1500
G1 X58.9 Y129.7 F1500
G1 X58.9 Y129.8 F1500
G1 X58.8 Y129.9 F1500
G1 X58.8 Y130.2 F1500
G1 X58.7 Y130.3 F1500
G1 X58.7 Y130.4 F1500
G1 X58.6 Y130.5 F1500
G1 X58.6 Y130.7 F1500
G1 X58.6 Y130.6 F1500
G1 X58.7 Y130.5 F1500
G1 X58.8 Y130.6 F1500
G1 X58.8 Y130.7 F1500
G1 X58.8 Y130.6 F1500
G1 X58.7 Y130.5 F1500
G1 X58.7 Y130.3 F1500
G1 X58.8 Y130.2 F1500
G1 X58.9 Y130.3 F1500
G1 X58.9 Y130.4 F1500
G1 X59.0 Y130.5 F1500
G1 X59.0 Y130.7 F1500
G1 X59.0 Y130.5 F1500
G1 X59.1 Y130.4 F1500
G1 X59.1 Y130.0 F1500
G1 X59.2 Y129.9 F1500
G1 X59.2 Y129.5 F1500
G1 X59.2 Y129.9 F1500
G1 X59.1 Y130.0 F1500
G1 X59.1 Y130.4 F1500
G1 X59.0 Y130.5 F1500
G1 X58.9 Y130.4 F1500
G1 X58.9 Y130.3 F1500
G1 X58.8 Y130.2 F1500
G1 X58.8 Y129.9 F1500
G1 X58.9 Y129.8 F1500
G1 X58.9 Y129.7 F1500
G1 X58.8 Y129.6 F1500
G1 X58.9 Y129.5 F1500
G1 X59.0 Y129.5 F1500
G1 X58.9 Y129.5 F1500
G1 X58.8 Y129.4 F1500
G1 X59.1 Y129.1 F1500
G1 X59.2 Y129.1 F1500
G1 X59.3 Y129.0 F1500
G1 X59.3 Y128.8 F1500
G1 X59.4 Y128.7 F1500
G1 X59.4 Y128.4 F1500
G1 X59.3 Y128.3 F1500
G1 X59.3 Y127.8 F1500
G1 X59.2 Y127.7 F1500
G1 X59.2 Y127.2 F1500
G1 X59.3 Y127.1 F1500
G1 X59.3 Y126.7 F1500
G1 X59.4 Y126.6 F1500
G1 X59.4 Y126.5 F1500
G0 Z5 F3000
G0 X52.3 Y126.4 F6000
G1 Z0 F1000
G1 X52.0 Y126.7 F1500
G1 X51.9 Y126.7 F1500
G1 X51.0 Y127.6 F1500
G1 X50.9 Y127.6 F1500
G1 X50.4 Y128.1 F1500
G1 X50.4 Y128.3 F1500
G1 X50.3 Y128.4 F1500
G1 X50.5 Y128.2 F1500
G1 X50.5 Y128.1 F1500
G1 X51.0 Y127.6 F1500
G1 X51.1 Y127.6 F1500
G1 X52.0 Y126.7 F1500
G1 X52.1 Y126.7 F1500
G1 X52.3 Y126.5 F1500
G0 Z5 F3000
G0 X55.4 Y126.3 F6000
G1 Z0 F1000
G1 X55.5 Y126.4 F1500
G1 X55.4 Y126.5 F1500
G1 X55.5 Y126.4 F1500
G0 Z5 F3000
G0 X61.8 Y126.0 F6000
G1 Z0 F1000
G1 X61.8 Y126.8 F1500
G1 X61.7 Y126.9 F1500
G1 X61.7 Y127.2 F1500
G1 X61.8 Y127.3 F1500
G1 X61.8 Y127.8 F1500
G1 X61.8 Y127.3 F1500
G1 X61.7 Y127.2 F1500
G1 X61.7 Y126.9 F1500
G1 X61.8 Y126.8 F1500
G1 X61.9 Y126.9 F1500
G1 X61.9 Y127.1 F1500
G1 X62.0 Y127.2 F1500
G1 X62.0 Y127.7 F1500
G1 X62.1 Y127.8 F1500
G1 X62.1 Y128.1 F1500
G1 X62.1 Y127.7 F1500
G1 X62.0 Y127.6 F1500
G1 X62.0 Y127.2 F1500
G1 X61.9 Y127.1 F1500
G1 X61.9 Y126.9 F1500
G1 X61.8 Y126.8 F1500
G0 Z5 F3000
G0 X58.9 Y125.9 F6000
G1 Z0 F1000
G1 X59.0 Y126.0 F1500
G1 X59.0 Y126.1 F1500
G1 X58.7 Y126.4 F1500
G1 X58.7 Y126.5 F1500
G1 X58.6 Y126.6 F1500
G1 X58.6 Y126.7 F1500
G1 X58.5 Y126.8 F1500
G1 X58.5 Y127.0 F1500
G1 X58.2 Y127.3 F1500
G1 X58.1 Y127.3 F1500
G1 X58.0 Y127.4 F1500
G1 X57.9 Y127.4 F1500
G1 X57.7 Y127.6 F1500
G1 X57.6 Y127.6 F1500
G1 X57.4 Y127.8 F1500
G1 X57.3 Y127.8 F1500
G1 X57.1 Y128.0 F1500
G1 X57.0 Y127.9 F1500
G1 X57.1 Y128.0 F1500
G1 X57.1 Y128.1 F1500
G1 X56.9 Y128.3 F1500
G1 X56.5 Y128.3 F1500
G1 X56.4 Y128.4 F1500
G1 X56.2 Y128.4 F1500
G1 X56.1 Y128.3 F1500
G1 X56.1 Y128.1 F1500
G1 X56.2 Y128.0 F1500
G1 X56.2 Y127.8 F1500
G1 X56.4 Y127.6 F1500
G1 X56.4 Y127.5 F1500
G1 X56.6 Y127.3 F1500
G1 X56.7 Y127.4 F1500
G1 X56.7 Y127.5 F1500
G1 X56.6 Y127.6 F1500
G1 X56.7 Y127.6 F1500
G1 X56.8 Y127.7 F1500
G1 X56.9 Y127.6 F1500
G1 X56.9 Y127.5 F1500
G1 X57.0 Y127.4 F1500
G1 X57.0 Y127.3 F1500
G1 X57.1 Y127.2 F1500
G1 X57.1 Y127.1 F1500
G1 X57.5 Y126.7 F1500
G1 X57.6 Y126.7 F1500
G1 X57.8 Y126.5 F1500
G1 X57.9 Y126.6 F1500
G1 X58.2 Y126.3 F1500
G1 X58.3 Y126.3 F1500
G1 X58.5 Y126.1 F1500
G1 X58.7 Y126.1 F1500
G0 Z5 F3000
G0 X53.4 Y126.0 F6000
G1 Z0 F1000
G1 X53.5 Y125.9 F1500
G1 X53.6 Y126.0 F1500
G1 X53.8 Y126.0 F1500
G1 X54.0 Y126.2 F1500
G1 X54.0 Y126.3 F1500
G1 X54.1 Y126.2 F1500
G1 X54.4 Y126.2 F1500
G1 X54.5 Y126.3 F1500
G1 X54.4 Y126.4 F1500
G1 X54.4 Y126.6 F1500
G1 X54.3 Y126.7 F1500
G1 X54.1 Y126.7 F1500
G1 X54.0 Y126.6 F1500
G1 X54.1 Y126.5 F1500
G1 X54.0 Y126.6 F1500
G1 X53.9 Y126.6 F1500
G1 X53.8 Y126.5 F1500
G1 X53.7 Y126.5 F1500
G1 X53.6 Y126.4 F1500
G1 X53.7 Y126.3 F1500
G1 X53.8 Y126.3 F1500
G1 X53.6 Y126.3 F1500
G1 X53.5 Y126.4 F1500
G1 X53.4 Y126.4 F1500
G1 X53.3 Y126.3 F1500
G1 X53.3 Y126.2 F1500
G1 X53.4 Y126.1 F1500
G0 Z5 F3000
G0 X53.3 Y125.9 F6000
G1 Z0 F1000
G1 X53.4 Y126.0 F1500
G1 X53.4 Y126.1 F1500
G1 X53.3 Y126.2 F1500
G1 X53.3 Y126.4 F1500
G1 X53.5 Y126.4 F1500
G1 X53.7 Y126.6 F1500
G1 X53.7 Y126.7 F1500
G1 X53.5 Y126.9 F1500
G1 X53.2 Y126.9 F1500
G1 X53.1 Y127.0 F1500
G1 X52.9 Y127.0 F1500
G1 X52.9 Y127.1 F1500
G1 X52.8 Y127.2 F1500
G1 X53.0 Y127.0 F1500
G1 X53.1 Y127.0 F1500
G1 X53.2 Y126.9 F1500
G1 X53.5 Y126.9 F1500
G1 X53.6 Y127.0 F1500
G1 X53.3 Y127.3 F1500
G1 X53.2 Y127.2 F1500
G1 X53.1 Y127.2 F1500
G1 X53.2 Y127.2 F1500
G1 X53.3 Y127.3 F1500
G1 X52.7 Y127.9 F1500
G1 X52.7 Y128.0 F1500
G1 X52.5 Y128.2 F1500
G1 X52.5 Y128.3 F1500
G1 X52.4 Y128.4 F1500
G1 X52.4 Y128.5 F1500
G1 X52.3 Y128.6 F1500
G1 X52.3 Y128.8 F1500
G1 X52.2 Y128.9 F1500
G1 X52.2 Y129.1 F1500
G1 X52.1 Y129.2 F1500
G1 X52.1 Y129.5 F1500
G1 X52.0 Y129.6 F1500
G1 X52.0 Y129.8 F1500
G1 X51.9 Y129.9 F1500
G1 X51.9 Y130.2 F1500
G1 X51.7 Y130.4 F1500
G1 X51.6 Y130.4 F1500
G1 X51.5 Y130.3 F1500
G1 X51.5 Y130.1 F1500
G1 X51.4 Y130.0 F1500
G1 X51.4 Y129.8 F1500
G1 X51.5 Y129.7 F1500
G1 X51.5 Y129.5 F1500
G1 X51.7 Y129.3 F1500
G1 X51.7 Y129.1 F1500
G1 X51.8 Y129.0 F1500
G1 X51.8 Y128.9 F1500
G1 X52.1 Y128.6 F1500
G1 X52.1 Y128.5 F1500
G1 X52.2 Y128.4 F1500
G1 X52.2 Y128.2 F1500
G1 X52.5 Y127.9 F1500
G1 X52.5 Y127.8 F1500
G1 X52.9 Y127.4 F1500
G1 X52.7 Y127.6 F1500
G1 X52.6 Y127.6 F1500
G1 X52.6 Y127.7 F1500
G1 X52.3 Y128.0 F1500
G1 X52.3 Y128.1 F1500
G1 X52.2 Y128.2 F1500
G1 X52.2 Y128.4 F1500
G1 X52.0 Y128.6 F1500
G1 X52.0 Y128.7 F1500
G1 X51.8 Y128.9 F1500
G1 X51.8 Y129.0 F1500
G1 X51.7 Y129.1 F1500
G1 X51.6 Y129.0 F1500
G1 X51.6 Y128.8 F1500
G1 X51.8 Y128.6 F1500
G1 X51.8 Y128.5 F1500
G1 X52.0 Y128.3 F1500
G1 X52.0 Y128.2 F1500
G1 X51.9 Y128.3 F1500
G1 X51.9 Y128.4 F1500
G1 X51.8 Y128.5 F1500
G1 X51.8 Y128.6 F1500
G1 X51.6 Y128.8 F1500
G1 X51.5 Y128.7 F1500
G1 X51.5 Y128.6 F1500
G1 X51.6 Y128.5 F1500
G1 X51.6 Y128.4 F1500
G1 X51.7 Y128.3 F1500
G1 X51.7 Y128.2 F1500
G1 X51.9 Y128.0 F1500
G1 X51.9 Y127.9 F1500
G1 X52.0 Y127.8 F1500
G1 X52.1 Y127.9 F1500
G1 X52.1 Y128.0 F1500
G1 X52.1 Y127.9 F1500
G1 X52.3 Y127.7 F1500
G1 X52.3 Y127.6 F1500
G1 X52.5 Y127.4 F1500
G1 X52.6 Y127.4 F1500
G1 X52.5 Y127.3 F1500
G1 X52.5 Y127.2 F1500
G1 X52.7 Y127.0 F1500
G1 X52.7 Y126.9 F1500
G1 X52.8 Y126.8 F1500
G1 X52.8 Y126.7 F1500
G1 X53.0 Y126.5 F1500
G1 X53.0 Y126.3 F1500
G1 X53.1 Y126.2 F1500
G1 X53.1 Y126.1 F1500
G0 Z5 F3000
G0 X58.9 Y125.9 F6000
G1 Z0 F1000
G1 X59.0 Y125.8 F1500
G1 X59.1 Y125.9 F1500
G1 X59.0 Y126.0 F1500
G0 Z5 F3000
G0 X53.5 Y125.9 F6000
G1 Z0 F1000
G1 X53.6 Y125.8 F1500
G1 X53.7 Y125.9 F1500
G1 X53.6 Y126.0 F1500
G0 Z5 F3000
G0 X53.1 Y125.8 F6000
G1 Z0 F1000
G1 X53.2 Y125.9 F1500
G1 X53.2 Y126.0 F1500
G1 X53.1 Y126.1 F1500
G1 X53.1 Y126.2 F1500
G1 X53.0 Y126.3 F1500
G1 X53.0 Y126.4 F1500
G1 X52.9 Y126.5 F1500
G1 X52.9 Y126.6 F1500
G1 X52.7 Y126.8 F1500
G1 X52.7 Y126.9 F1500
G1 X52.6 Y127.0 F1500
G1 X52.6 Y127.1 F1500
G1 X52.5 Y127.2 F1500
G1 X52.5 Y127.3 F1500
G1 X52.4 Y127.4 F1500
G1 X52.4 Y127.5 F1500
G1 X52.3 Y127.6 F1500
G1 X52.3 Y127.7 F1500
G1 X52.1 Y127.9 F1500
G1 X52.0 Y127.8 F1500
G1 X52.0 Y127.7 F1500
G1 X52.1 Y127.6 F1500
G1 X52.1 Y127.5 F1500
G1 X52.2 Y127.4 F1500
G1 X52.2 Y127.3 F1500
G1 X52.3 Y127.2 F1500
G1 X52.3 Y127.1 F1500
G1 X52.4 Y127.0 F1500
G1 X52.4 Y126.9 F1500
G1 X52.5 Y126.8 F1500
G1 X52.5 Y126.7 F1500
G1 X52.7 Y126.5 F1500
G1 X52.7 Y126.4 F1500
G1 X52.8 Y126.3 F1500
G1 X52.8 Y126.2 F1500
G1 X52.9 Y126.1 F1500
G1 X52.9 Y126.0 F1500
G0 Z5 F3000
G0 X59.0 Y125.8 F6000
G1 Z0 F1000
G1 X58.8 Y126.0 F1500
G1 X58.7 Y126.0 F1500
G1 X58.6 Y126.1 F1500
G1 X58.5 Y126.1 F1500
G1 X58.4 Y126.2 F1500
G1 X58.3 Y126.2 F1500
G1 X58.2 Y126.3 F1500
G1 X58.1 Y126.3 F1500
G1 X57.9 Y126.5 F1500
G1 X57.7 Y126.5 F1500
G1 X57.5 Y126.7 F1500
G1 X57.4 Y126.7 F1500
G1 X57.1 Y127.0 F1500
G1 X57.1 Y127.1 F1500
G1 X57.0 Y127.2 F1500
G1 X56.8 Y127.0 F1500
G1 X56.8 Y126.9 F1500
G1 X57.0 Y126.7 F1500
G1 X57.1 Y126.7 F1500
G1 X56.9 Y126.7 F1500
G1 X56.8 Y126.6 F1500
G1 X56.9 Y126.7 F1500
G1 X56.8 Y126.8 F1500
G1 X56.8 Y126.9 F1500
G1 X56.6 Y127.1 F1500
G1 X56.6 Y127.2 F1500
G1 X56.4 Y127.4 F1500
G1 X56.4 Y127.5 F1500
G1 X56.2 Y127.7 F1500
G1 X56.2 Y127.9 F1500
G1 X56.1 Y128.0 F1500
G1 X56.1 Y128.4 F1500
G1 X56.2 Y128.5 F1500
G1 X56.0 Y128.7 F1500
G1 X56.0 Y128.9 F1500
G1 X55.9 Y129.0 F1500
G1 X55.9 Y129.3 F1500
G1 X55.8 Y129.4 F1500
G1 X55.7 Y129.3 F1500
G1 X55.7 Y128.9 F1500
G1 X55.8 Y128.8 F1500
G1 X55.8 Y128.6 F1500
G1 X55.9 Y128.5 F1500
G1 X55.8 Y128.5 F1500
G1 X55.8 Y128.8 F1500
G1 X55.7 Y128.9 F1500
G1 X55.7 Y129.3 F1500
G1 X55.6 Y129.4 F1500
G1 X55.6 Y129.7 F1500
G1 X55.5 Y129.8 F1500
G1 X55.5 Y129.9 F1500
G1 X55.3 Y130.1 F1500
G1 X55.3 Y130.2 F1500
G1 X55.1 Y130.4 F1500
G1 X55.1 Y130.7 F1500
G1 X55.1 Y130.5 F1500
G1 X55.2 Y130.4 F1500
G1 X55.2 Y130.3 F1500
G1 X55.5 Y130.0 F1500
G1 X55.5 Y129.8 F1500
G1 X55.6 Y129.7 F1500
G1 X55.6 Y129.4 F1500
G1 X55.7 Y129.3 F1500
G1 X55.8 Y129.4 F1500
G1 X55.8 Y129.8 F1500
G1 X55.7 Y129.9 F1500
G1 X55.7 Y130.2 F1500
G1 X55.6 Y130.3 F1500
G1 X55.6 Y130.7 F1500
G1 X55.6 Y130.3 F1500
G1 X55.7 Y130.2 F1500
G1 X55.7 Y129.9 F1500
G1 X55.8 Y129.8 F1500
G1 X55.9 Y129.9 F1500
G1 X55.9 Y130.3 F1500
G1 X55.9 Y129.9 F1500
G1 X56.0 Y129.8 F1500
G1 X56.0 Y129.5 F1500
G1 X56.1 Y129.4 F1500
G1 X56.1 Y129.3 F1500
G1 X56.2 Y129.2 F1500
G1 X56.2 Y129.1 F1500
G1 X56.3 Y129.0 F1500
G1 X56.3 Y128.9 F1500
G1 X56.4 Y128.8 F1500
G1 X56.6 Y128.8 F1500
G1 X56.6 Y128.7 F1500
G1 X56.8 Y128.5 F1500
G1 X56.9 Y128.6 F1500
G1 X56.9 Y128.7 F1500
G1 X56.8 Y128.8 F1500
G1 X56.9 Y128.9 F1500
G1 X56.7 Y129.1 F1500
G1 X56.9 Y128.9 F1500
G1 X56.8 Y128.8 F1500
G1 X56.9 Y128.7 F1500
G1 X56.9 Y128.5 F1500
G1 X56.7 Y128.5 F1500
G1 X56.6 Y128.6 F1500
G1 X56.6 Y128.7 F1500
G1 X56.5 Y128.8 F1500
G1 X56.4 Y128.7 F1500
G1 X56.3 Y128.8 F1500
G1 X56.3 Y128.9 F1500
G1 X56.2 Y129.0 F1500
G1 X56.2 Y129.2 F1500
G1 X56.1 Y129.3 F1500
G1 X56.1 Y129.4 F1500
G1 X56.0 Y129.5 F1500
G1 X56.0 Y129.8 F1500
G1 X55.9 Y129.9 F1500
G1 X55.8 Y129.8 F1500
G1 X55.8 Y129.4 F1500
G1 X55.9 Y129.3 F1500
G1 X55.9 Y129.0 F1500
G1 X56.0 Y128.9 F1500
G1 X56.0 Y128.8 F1500
G1 X56.1 Y128.7 F1500
G1 X56.1 Y128.6 F1500
G1 X56.3 Y128.4 F1500
G1 X56.4 Y128.4 F1500
G1 X56.5 Y128.3 F1500
G1 X57.0 Y128.3 F1500
G1 X57.1 Y128.2 F1500
G1 X57.1 Y128.1 F1500
G1 X57.5 Y127.7 F1500
G1 X57.6 Y127.7 F1500
G1 X57.7 Y127.6 F1500
G1 X57.8 Y127.6 F1500
G1 X58.0 Y127.4 F1500
G1 X58.1 Y127.4 F1500
G1 X58.2 Y127.3 F1500
G1 X58.3 Y127.3 F1500
G1 X58.4 Y127.2 F1500
G1 X58.4 Y127.1 F1500
G1 X58.5 Y127.0 F1500
G1 X58.5 Y126.9 F1500
G1 X58.6 Y126.8 F1500
G1 X58.6 Y126.7 F1500
G1 X58.7 Y126.6 F1500
G1 X58.7 Y126.5 F1500
G1 X59.0 Y126.2 F1500
G1 X59.0 Y126.1 F1500
G1 X59.3 Y125.8 F1500
G1 X59.2 Y125.9 F1500
G1 X59.1 Y125.8 F1500
G0 Z5 F3000
G0 X61.3 Y125.7 F6000
G1 Z0 F1000
G1 X61.2 Y125.8 F1500
G1 X61.2 Y125.9 F1500
G1 X61.0 Y126.1 F1500
G1 X61.0 Y126.2 F1500
G1 X60.8 Y126.4 F1500
G1 X60.8 Y126.5 F1500
G1 X60.5 Y126.8 F1500
G1 X60.5 Y127.1 F1500
G1 X60.4 Y127.2 F1500
G1 X60.4 Y127.3 F1500
G1 X60.3 Y127.4 F1500
G1 X60.3 Y127.5 F1500
G1 X60.1 Y127.7 F1500
G1 X60.1 Y127.9 F1500
G1 X59.9 Y128.1 F1500
G1 X59.9 Y128.2 F1500
G1 X59.7 Y128.4 F1500
G1 X59.7 Y128.6 F1500
G1 X59.6 Y128.7 F1500
G1 X59.6 Y128.8 F1500
G1 X59.5 Y128.9 F1500
G1 X59.5 Y129.1 F1500
G1 X59.4 Y129.2 F1500
G1 X59.4 Y129.3 F1500
G1 X59.4 Y129.2 F1500
G1 X59.5 Y129.1 F1500
G1 X59.6 Y129.2 F1500
G1 X59.7 Y129.1 F1500
G1 X59.8 Y129.2 F1500
G1 X59.8 Y129.3 F1500
G1 X59.7 Y129.4 F1500
G1 X59.7 Y129.5 F1500
G1 X59.5 Y129.7 F1500
G1 X59.5 Y129.9 F1500
G1 X59.4 Y130.0 F1500
G1 X59.4 Y130.1 F1500
G1 X59.3 Y130.2 F1500
G1 X59.5 Y130.0 F1500
G1 X59.5 Y129.8 F1500
G1 X59.7 Y129.6 F1500
G1 X59.7 Y129.4 F1500
G1 X59.8 Y129.3 F1500
G1 X59.8 Y129.1 F1500
G1 X59.7 Y129.1 F1500
G1 X59.6 Y129.2 F1500
G1 X59.5 Y129.1 F1500
G1 X59.5 Y129.0 F1500
G1 X59.6 Y128.9 F1500
G1 X59.6 Y128.7 F1500
G1 X59.7 Y128.6 F1500
G1 X59.7 Y128.5 F1500
G1 X59.8 Y128.4 F1500
G1 X59.8 Y128.3 F1500
G1 X60.0 Y128.1 F1500
G1 X60.0 Y128.0 F1500
G1 X60.1 Y127.9 F1500
G1 X60.1 Y127.8 F1500
G1 X60.3 Y127.6 F1500
G1 X60.3 Y127.5 F1500
G1 X60.4 Y127.4 F1500
G1 X60.4 Y127.2 F1500
G1 X60.5 Y127.1 F1500
G1 X60.5 Y126.9 F1500
G1 X60.8 Y126.6 F1500
G1 X60.8 Y126.5 F1500
G1 X61.0 Y126.3 F1500
G1 X61.0 Y126.2 F1500
G1 X61.2 Y126.0 F1500
G1 X61.2 Y125.9 F1500
G1 X61.3 Y125.8 F1500
G0 Z5 F3000
G0 X53.6 Y125.7 F6000
G1 Z0 F1000
G1 X53.7 Y125.6 F1500
G1 X53.8 Y125.6 F1500
G1 X53.9 Y125.7 F1500
G1 X53.7 Y125.9 F1500
G1 X53.6 Y125.8 F1500
G0 Z5 F3000
G0 X53.1 Y125.7 F6000
G1 Z0 F1000
G1 X53.2 Y125.6 F1500
G1 X53.3 Y125.7 F1500
G1 X53.3 Y125.8 F1500
G1 X53.2 Y125.9 F1500
G1 X53.1 Y125.8 F1500
G0 Z5 F3000
G0 X52.7 Y125.6 F6000
G1 Z0 F1000
G1 X52.7 Y125.7 F1500
G0 Z5 F3000
G0 X61.5 Y125.5 F6000
G1 Z0 F1000
G1 X61.5 Y126.6 F1500
G1 X61.4 Y126.7 F1500
G1 X61.4 Y127.0 F1500
G1 X61.3 Y127.1 F1500
G1 X61.3 Y127.3 F1500
G1 X61.2 Y127.4 F1500
G1 X61.2 Y127.7 F1500
G1 X61.1 Y127.8 F1500
G1 X61.1 Y128.0 F1500
G1 X61.0 Y128.1 F1500
G1 X61.0 Y128.2 F1500
G1 X60.9 Y128.3 F1500
G1 X60.9 Y128.5 F1500
G1 X60.8 Y128.6 F1500
G1 X60.8 Y129.0 F1500
G1 X60.7 Y129.1 F1500
G1 X60.7 Y129.4 F1500
G1 X60.6 Y129.5 F1500
G1 X60.6 Y129.7 F1500
G1 X60.4 Y129.9 F1500
G1 X60.4 Y130.0 F1500
G1 X60.3 Y130.1 F1500
G1 X60.2 Y130.0 F1500
G1 X60.1 Y130.0 F1500
G1 X60.0 Y130.1 F1500
G1 X59.8 Y130.1 F1500
G1 X59.7 Y130.2 F1500
G1 X59.6 Y130.2 F1500
G1 X59.5 Y130.3 F1500
G1 X59.6 Y130.4 F1500
G1 X59.6 Y130.7 F1500
G1 X59.6 Y130.4 F1500
G1 X59.5 Y130.3 F1500
G1 X59.6 Y130.2 F1500
G1 X59.7 Y130.2 F1500
G1 X59.8 Y130.1 F1500
G1 X59.9 Y130.2 F1500
G1 X60.0 Y130.1 F1500
G1 X60.1 Y130.2 F1500
G1 X60.1 Y130.4 F1500
G1 X60.0 Y130.5 F1500
G1 X60.0 Y130.7 F1500
G1 X60.0 Y130.6 F1500
G1 X60.1 Y130.5 F1500
G1 X60.1 Y130.4 F1500
G1 X60.4 Y130.1 F1500
G1 X60.4 Y130.0 F1500
G1 X60.5 Y129.9 F1500
G1 X60.5 Y129.8 F1500
G1 X60.6 Y129.7 F1500
G1 X60.6 Y129.5 F1500
G1 X60.7 Y129.4 F1500
G1 X60.7 Y129.1 F1500
G1 X60.8 Y129.0 F1500
G1 X60.8 Y128.6 F1500
G1 X60.9 Y128.5 F1500
G1 X60.9 Y128.4 F1500
G1 X61.0 Y128.3 F1500
G1 X61.0 Y128.1 F1500
G1 X61.1 Y128.0 F1500
G1 X61.1 Y127.8 F1500
G1 X61.2 Y127.7 F1500
G1 X61.2 Y127.4 F1500
G1 X61.3 Y127.3 F1500
G1 X61.3 Y127.1 F1500
G1 X61.4 Y127.0 F1500
G1 X61.4 Y126.7 F1500
G1 X61.5 Y126.6 F1500
G0 Z5 F3000
G0 X52.3 Y125.4 F6000
G1 Z0 F1000
G1 X52.4 Y125.3 F1500
G1 X52.5 Y125.4 F1500
G1 X52.5 Y125.5 F1500
G1 X52.4 Y125.6 F1500
G1 X52.3 Y125.5 F1500
G0 Z5 F3000
G0 X52.1 Y125.4 F6000
G1 Z0 F1000
G1 X52.1 Y125.6 F1500
G1 X52.2 Y125.7 F1500
G1 X52.2 Y125.8 F1500
G1 X52.3 Y125.9 F1500
G1 X52.3 Y126.0 F1500
G1 X52.4 Y126.1 F1500
G1 X52.4 Y126.0 F1500
G1 X52.2 Y125.8 F1500
G1 X52.2 Y125.7 F1500
G1 X52.1 Y125.6 F1500
G0 Z5 F3000
G0 X53.4 Y125.2 F6000
G1 Z0 F1000
G1 X53.5 Y125.3 F1500
G1 X53.5 Y125.4 F1500
G1 X53.4 Y125.5 F1500
G1 X53.4 Y125.6 F1500
G1 X53.3 Y125.7 F1500
G1 X53.2 Y125.6 F1500
G1 X53.2 Y125.4 F1500
G0 Z5 F3000
G0 X61.5 Y125.2 F6000
G1 Z0 F1000
G1 X61.5 Y125.3 F1500
G0 Z5 F3000
G0 X61.4 Y125.0 F6000
G1 Z0 F1000
G1 X61.2 Y125.2 F1500
G1 X61.2 Y125.3 F1500
G1 X61.0 Y125.5 F1500
G1 X61.0 Y125.6 F1500
G1 X60.8 Y125.8 F1500
G1 X60.8 Y125.9 F1500
G1 X60.8 Y125.8 F1500
G1 X60.9 Y125.7 F1500
G1 X61.0 Y125.7 F1500
G1 X61.0 Y125.5 F1500
G1 X61.3 Y125.2 F1500
G1 X61.3 Y125.1 F1500
G0 Z5 F3000
G0 X52.5 Y125.0 F6000
G1 Z0 F1000
G1 X52.6 Y124.9 F1500
G1 X52.8 Y125.1 F1500
G1 X52.8 Y125.3 F1500
G1 X52.7 Y125.4 F1500
G1 X52.6 Y125.3 F1500
G1 X52.6 Y125.2 F1500
G1 X52.5 Y125.1 F1500
G0 Z5 F3000
G0 X61.6 Y124.8 F6000
G1 Z0 F1000
G1 X61.6 Y125.0 F1500
G0 Z5 F3000
G0 X53.9 Y124.7 F6000
G1 Z0 F1000
G1 X54.0 Y124.6 F1500
G1 X54.1 Y124.7 F1500
G1 X54.1 Y124.9 F1500
G1 X53.9 Y125.1 F1500
G1 X53.9 Y125.2 F1500
G1 X53.7 Y125.4 F1500
G1 X53.7 Y125.6 F1500
G1 X53.6 Y125.7 F1500
G1 X53.6 Y125.8 F1500
G1 X53.4 Y126.0 F1500
G1 X53.3 Y125.9 F1500
G1 X53.3 Y125.8 F1500
G1 X53.4 Y125.7 F1500
G1 X53.4 Y125.5 F1500
G1 X53.5 Y125.4 F1500
G1 X53.5 Y125.3 F1500
G1 X53.7 Y125.1 F1500
G1 X53.7 Y125.0 F1500
G1 X53.9 Y124.8 F1500
G0 Z5 F3000
G0 X51.9 Y124.3 F6000
G1 Z0 F1000
G1 X52.0 Y124.4 F1500
G1 X52.0 Y124.6 F1500
G1 X52.1 Y124.7 F1500
G1 X52.0 Y124.8 F1500
G1 X51.9 Y124.8 F1500
G1 X52.1 Y124.8 F1500
G1 X52.1 Y124.6 F1500
G1 X52.0 Y124.5 F1500
G1 X52.0 Y124.4 F1500
G0 Z5 F3000
G0 X61.5 Y124.0 F6000
G1 Z0 F1000
G1 X61.5 Y124.1 F1500
G1 X61.3 Y124.3 F1500
G1 X61.2 Y124.3 F1500
G1 X61.1 Y124.4 F1500
G1 X61.0 Y124.4 F1500
G1 X60.4 Y125.0 F1500
G1 X60.4 Y125.1 F1500
G1 X60.2 Y125.3 F1500
G1 X60.2 Y125.4 F1500
G1 X60.1 Y125.5 F1500
G1 X60.1 Y125.6 F1500
G1 X60.0 Y125.7 F1500
G1 X60.0 Y125.9 F1500
G1 X59.9 Y126.0 F1500
G1 X59.9 Y126.1 F1500
G1 X59.8 Y126.2 F1500
G1 X59.8 Y126.6 F1500
G1 X59.7 Y126.7 F1500
G1 X59.7 Y127.1 F1500
G1 X59.6 Y127.2 F1500
G1 X59.6 Y127.4 F1500
G1 X59.5 Y127.5 F1500
G1 X59.5 Y127.9 F1500
G1 X59.5 Y127.5 F1500
G1 X59.6 Y127.4 F1500
G1 X59.6 Y127.2 F1500
G1 X59.7 Y127.1 F1500
G1 X59.7 Y126.7 F1500
G1 X59.8 Y126.6 F1500
G1 X59.8 Y126.2 F1500
G1 X59.9 Y126.1 F1500
G1 X59.9 Y126.0 F1500
G1 X60.0 Y125.9 F1500
G1 X60.0 Y125.8 F1500
G1 X60.1 Y125.7 F1500
G1 X60.1 Y125.6 F1500
G1 X60.2 Y125.5 F1500
G1 X60.2 Y125.4 F1500
G1 X60.4 Y125.2 F1500
G1 X60.4 Y125.1 F1500
G1 X61.1 Y124.4 F1500
G1 X61.2 Y124.4 F1500
G1 X61.5 Y124.1 F1500
G0 Z5 F3000
G0 X64.6 Y123.9 F6000
G1 Z0 F1000
G1 X64.6 Y124.0 F1500
G1 X64.5 Y124.1 F1500
G1 X64.5 Y124.5 F1500
G1 X64.5 Y124.2 F1500
G1 X64.6 Y124.1 F1500
G1 X64.7 Y124.2 F1500
G1 X64.7 Y124.6 F1500
G1 X64.6 Y124.7 F1500
G1 X64.6 Y124.8 F1500
G1 X64.7 Y124.9 F1500
G1 X64.7 Y125.1 F1500
G1 X64.6 Y125.2 F1500
G1 X64.6 Y125.7 F1500
G1 X64.5 Y125.8 F1500
G1 X64.5 Y126.0 F1500
G1 X64.4 Y126.1 F1500
G1 X64.4 Y126.2 F1500
G1 X64.3 Y126.3 F1500
G1 X64.3 Y127.1 F1500
G1 X64.2 Y127.2 F1500
G1 X64.2 Y127.6 F1500
G1 X64.3 Y127.7 F1500
G1 X64.3 Y128.2 F1500
G1 X64.2 Y128.3 F1500
G1 X64.2 Y129.0 F1500
G1 X64.1 Y129.1 F1500
G1 X64.2 Y129.2 F1500
G1 X64.2 Y129.3 F1500
G1 X64.3 Y129.4 F1500
G1 X64.3 Y129.5 F1500
G1 X64.2 Y129.6 F1500
G1 X64.2 Y129.9 F1500
G1 X64.3 Y130.0 F1500
G1 X64.3 Y130.4 F1500
G1 X64.4 Y130.5 F1500
G1 X64.4 Y130.6 F1500
G1 X64.5 Y130.7 F1500
G1 X64.5 Y130.6 F1500
G1 X64.3 Y130.4 F1500
G1 X64.3 Y130.0 F1500
G1 X64.2 Y129.9 F1500
G1 X64.2 Y129.6 F1500
G1 X64.4 Y129.4 F1500
G1 X64.4 Y129.2 F1500
G1 X64.5 Y129.1 F1500
G1 X64.5 Y128.9 F1500
G1 X64.6 Y128.8 F1500
G1 X64.6 Y128.4 F1500
G1 X64.5 Y128.4 F1500
G1 X64.6 Y128.5 F1500
G1 X64.6 Y128.8 F1500
G1 X64.5 Y128.9 F1500
G1 X64.5 Y129.1 F1500
G1 X64.4 Y129.2 F1500
G1 X64.4 Y129.3 F1500
G1 X64.3 Y129.4 F1500
G1 X64.2 Y129.3 F1500
G1 X64.2 Y129.2 F1500
G1 X64.1 Y129.1 F1500
G1 X64.2 Y129.0 F1500
G1 X64.2 Y128.3 F1500
G1 X64.3 Y128.2 F1500
G1 X64.3 Y127.7 F1500
G1 X64.2 Y127.6 F1500
G1 X64.2 Y127.2 F1500
G1 X64.3 Y127.1 F1500
G1 X64.3 Y126.3 F1500
G1 X64.4 Y126.2 F1500
G1 X64.4 Y126.1 F1500
G1 X64.5 Y126.0 F1500
G1 X64.5 Y125.8 F1500
G1 X64.6 Y125.7 F1500
G1 X64.6 Y125.2 F1500
G1 X64.7 Y125.1 F1500
G1 X64.7 Y124.1 F1500
G1 X64.6 Y124.0 F1500
G0 Z5 F3000
G0 X62.6 Y123.9 F6000
G1 Z0 F1000
G1 X62.6 Y124.1 F1500
G1 X62.5 Y124.2 F1500
G1 X62.5 Y125.0 F1500
G1 X62.6 Y125.1 F1500
G1 X62.6 Y125.4 F1500
G1 X62.7 Y125.5 F1500
G1 X62.7 Y125.8 F1500
G1 X62.8 Y125.9 F1500
G1 X62.8 Y126.3 F1500
G1 X62.9 Y126.4 F1500
G1 X62.9 Y126.7 F1500
G1 X63.0 Y126.8 F1500
G1 X63.0 Y127.1 F1500
G1 X63.1 Y127.2 F1500
G1 X63.1 Y127.6 F1500
G1 X63.2 Y127.7 F1500
G1 X63.2 Y128.0 F1500
G1 X63.3 Y128.1 F1500
G1 X63.3 Y128.3 F1500
G1 X63.4 Y128.4 F1500
G1 X63.4 Y128.5 F1500
G1 X63.5 Y128.6 F1500
G1 X63.5 Y129.0 F1500
G1 X63.6 Y129.1 F1500
G1 X63.6 Y129.5 F1500
G1 X63.7 Y129.6 F1500
G1 X63.7 Y129.8 F1500
G1 X63.8 Y129.9 F1500
G1 X63.8 Y130.3 F1500
G1 X63.9 Y130.4 F1500
G1 X63.9 Y130.7 F1500
G1 X63.9 Y130.4 F1500
G1 X63.8 Y130.3 F1500
G1 X63.8 Y129.9 F1500
G1 X63.7 Y129.8 F1500
G1 X63.7 Y129.6 F1500
G1 X63.6 Y129.5 F1500
G1 X63.6 Y129.1 F1500
G1 X63.5 Y129.0 F1500
G1 X63.5 Y128.6 F1500
G1 X63.4 Y128.5 F1500
G1 X63.4 Y128.4 F1500
G1 X63.3 Y128.3 F1500
G1 X63.3 Y128.1 F1500
G1 X63.2 Y128.0 F1500
G1 X63.2 Y127.7 F1500
G1 X63.1 Y127.6 F1500
G1 X63.1 Y127.2 F1500
G1 X63.0 Y127.1 F1500
G1 X63.0 Y126.8 F1500
G1 X62.9 Y126.7 F1500
G1 X62.9 Y126.4 F1500
G1 X62.8 Y126.3 F1500
G1 X62.8 Y125.9 F1500
G1 X62.7 Y125.8 F1500
G1 X62.7 Y125.5 F1500
G1 X62.6 Y125.4 F1500
G1 X62.6 Y125.1 F1500
G1 X62.5 Y125.0 F1500
G1 X62.5 Y124.6 F1500
G1 X62.6 Y124.5 F1500
G1 X62.7 Y124.6 F1500
G1 X62.7 Y124.8 F1500
G1 X62.8 Y124.9 F1500
G1 X62.8 Y125.0 F1500
G1 X62.9 Y124.9 F1500
G1 X63.0 Y125.0 F1500
G1 X63.1 Y125.0 F1500
G1 X63.2 Y125.1 F1500
G1 X63.3 Y125.1 F1500
G1 X63.5 Y125.3 F1500
G1 X63.6 Y125.3 F1500
G1 X63.9 Y125.6 F1500
G1 X64.1 Y125.6 F1500
G1 X64.1 Y125.4 F1500
G1 X64.2 Y125.3 F1500
G1 X64.2 Y125.2 F1500
G1 X64.4 Y125.0 F1500
G1 X64.4 Y124.8 F1500
G1 X64.4 Y124.9 F1500
G1 X64.2 Y125.1 F1500
G1 X64.2 Y125.2 F1500
G1 X64.1 Y125.3 F1500
G1 X64.1 Y125.5 F1500
G1 X64.0 Y125.6 F1500
G1 X63.7 Y125.3 F1500
G1 X63.6 Y125.3 F1500
G1 X63.4 Y125.1 F1500
G1 X63.3 Y125.1 F1500
G1 X63.2 Y125.0 F1500
G1 X63.2 Y124.9 F1500
G1 X63.1 Y124.8 F1500
G1 X63.1 Y124.6 F1500
G1 X62.9 Y124.6 F1500
G1 X63.0 Y124.6 F1500
G1 X63.1 Y124.7 F1500
G1 X63.1 Y124.9 F1500
G1 X63.0 Y125.0 F1500
G1 X62.7 Y124.7 F1500
G1 X62.7 Y124.5 F1500
G1 X62.6 Y124.5 F1500
G1 X62.5 Y124.4 F1500
G1 X62.5 Y124.2 F1500
G1 X62.6 Y124.1 F1500
G1 X62.6 Y124.0 F1500
G1 X62.7 Y123.9 F1500
G0 Z5 F3000
G0 X53.9 Y123.9 F6000
G1 Z0 F1000
G1 X53.7 Y124.1 F1500
G1 X53.6 Y124.0 F1500
G1 X53.7 Y124.1 F1500
G1 X53.7 Y124.2 F1500
G1 X53.6 Y124.3 F1500
G1 X53.5 Y124.2 F1500
G1 X53.4 Y124.2 F1500
G1 X53.4 Y124.3 F1500
G1 X53.5 Y124.2 F1500
G1 X53.6 Y124.3 F1500
G1 X53.7 Y124.2 F1500
G1 X53.8 Y124.3 F1500
G1 X53.8 Y124.4 F1500
G1 X53.7 Y124.5 F1500
G1 X53.7 Y124.6 F1500
G1 X53.6 Y124.7 F1500
G1 X53.6 Y124.8 F1500
G1 X53.6 Y124.7 F1500
G1 X53.7 Y124.6 F1500
G1 X53.7 Y124.5 F1500
G1 X53.8 Y124.4 F1500
G1 X53.8 Y124.3 F1500
G1 X53.9 Y124.2 F1500
G1 X53.8 Y124.3 F1500
G1 X53.7 Y124.2 F1500
G1 X53.7 Y124.1 F1500
G0 Z5 F3000
G0 X51.5 Y123.6 F6000
G1 Z0 F1000
G1 X51.5 Y123.8 F1500
G1 X51.6 Y123.9 F1500
G1 X51.6 Y124.0 F1500
G1 X51.7 Y124.1 F1500
G1 X51.7 Y124.2 F1500
G1 X51.6 Y124.3 F1500
G1 X51.6 Y124.5 F1500
G1 X51.6 Y124.3 F1500
G1 X51.7 Y124.2 F1500
G1 X51.7 Y124.1 F1500
G1 X51.6 Y124.0 F1500
G1 X51.6 Y123.8 F1500
G1 X51.5 Y123.7 F1500
G0 Z5 F3000
G0 X65.0 Y123.5 F6000
G1 Z0 F1000
G1 X65.0 Y126.3 F1500
G1 X65.1 Y126.4 F1500
G1 X65.1 Y127.2 F1500
G1 X65.2 Y127.3 F1500
G1 X65.2 Y127.6 F1500
G1 X65.3 Y127.7 F1500
G1 X65.3 Y128.1 F1500
G1 X65.4 Y128.2 F1500
G1 X65.4 Y128.5 F1500
G1 X65.3 Y128.6 F1500
G1 X65.3 Y128.8 F1500
G1 X65.4 Y128.9 F1500
G1 X65.3 Y129.0 F1500
G1 X65.4 Y129.1 F1500
G1 X65.4 Y129.7 F1500
G1 X65.3 Y129.8 F1500
G1 X65.3 Y129.9 F1500
G1 X65.2 Y130.0 F1500
G1 X65.1 Y130.0 F1500
G1 X65.0 Y129.9 F1500
G1 X65.0 Y130.0 F1500
G1 X65.2 Y130.0 F1500
G1 X65.3 Y130.1 F1500
G1 X65.3 Y130.3 F1500
G1 X65.4 Y130.4 F1500
G1 X65.3 Y130.5 F1500
G1 X65.3 Y130.7 F1500
G1 X65.3 Y130.5 F1500
G1 X65.4 Y130.4 F1500
G1 X65.3 Y130.3 F1500
G1 X65.3 Y129.8 F1500
G1 X65.4 Y129.7 F1500
G1 X65.4 Y129.1 F1500
G1 X65.3 Y129.0 F1500
G1 X65.4 Y128.9 F1500
G1 X65.3 Y128.8 F1500
G1 X65.3 Y128.6 F1500
G1 X65.4 Y128.5 F1500
G1 X65.4 Y128.2 F1500
G1 X65.3 Y128.1 F1500
G1 X65.3 Y127.7 F1500
G1 X65.2 Y127.6 F1500
G1 X65.2 Y127.3 F1500
G1 X65.1 Y127.2 F1500
G1 X65.1 Y126.4 F1500
G1 X65.0 Y126.3 F1500
G0 Z5 F3000
G0 X62.5 Y123.5 F6000
G1 Z0 F1000
G1 X62.4 Y123.6 F1500
G1 X62.4 Y123.7 F1500
G1 X62.3 Y123.8 F1500
G1 X62.3 Y125.3 F1500
G1 X62.4 Y125.4 F1500
G1 X62.4 Y125.8 F1500
G1 X62.3 Y125.9 F1500
G1 X62.3 Y127.2 F1500
G1 X62.4 Y127.3 F1500
G1 X62.4 Y128.2 F1500
G1 X62.5 Y128.3 F1500
G1 X62.5 Y128.5 F1500
G1 X62.4 Y128.6 F1500
G1 X62.5 Y128.7 F1500
G1 X62.4 Y128.8 F1500
G1 X62.5 Y128.9 F1500
G1 X62.4 Y129.0 F1500
G1 X62.5 Y129.1 F1500
G1 X62.5 Y129.4 F1500
G1 X62.6 Y129.5 F1500
G1 X62.6 Y130.7 F1500
G1 X62.6 Y129.5 F1500
G1 X62.5 Y129.4 F1500
G1 X62.5 Y128.9 F1500
G1 X62.4 Y128.8 F1500
G1 X62.5 Y128.7 F1500
G1 X62.4 Y128.6 F1500
G1 X62.5 Y128.5 F1500
G1 X62.5 Y128.3 F1500
G1 X62.4 Y128.2 F1500
G1 X62.4 Y127.3 F1500
G1 X62.3 Y127.2 F1500
G1 X62.3 Y125.9 F1500
G1 X62.4 Y125.8 F1500
G1 X62.4 Y125.4 F1500
G1 X62.3 Y125.3 F1500
G1 X62.3 Y123.8 F1500
G1 X62.6 Y123.5 F1500
G0 Z5 F3000
G0 X73.4 Y123.3 F6000
G1 Z0 F1000
G1 X73.1 Y123.6 F1500
G1 X73.0 Y123.6 F1500
G1 X72.7 Y123.9 F1500
G1 X72.5 Y123.9 F1500
G1 X72.1 Y124.3 F1500
G1 X72.0 Y124.3 F1500
G1 X71.7 Y124.6 F1500
G1 X71.6 Y124.6 F1500
G1 X71.5 Y124.7 F1500
G1 X71.4 Y124.7 F1500
G1 X71.3 Y124.8 F1500
G1 X71.2 Y124.8 F1500
G1 X71.1 Y124.9 F1500
G1 X71.0 Y124.9 F1500
G1 X70.9 Y125.0 F1500
G1 X70.8 Y125.0 F1500
G1 X70.7 Y125.1 F1500
G1 X70.6 Y125.1 F1500
G1 X70.4 Y125.3 F1500
G1 X70.4 Y125.4 F1500
G1 X70.3 Y125.5 F1500
G1 X70.1 Y125.5 F1500
G1 X70.0 Y125.6 F1500
G1 X69.9 Y125.6 F1500
G1 X69.8 Y125.7 F1500
G1 X69.6 Y125.7 F1500
G1 X69.5 Y125.8 F1500
G1 X69.3 Y125.8 F1500
G1 X69.2 Y125.9 F1500
G1 X69.1 Y125.9 F1500
G1 X69.0 Y126.0 F1500
G1 X68.8 Y126.0 F1500
G1 X68.6 Y126.2 F1500
G1 X68.3 Y126.2 F1500
G1 X68.2 Y126.3 F1500
G1 X68.0 Y126.3 F1500
G1 X67.9 Y126.4 F1500
G1 X67.7 Y126.4 F1500
G1 X67.6 Y126.5 F1500
G1 X67.4 Y126.5 F1500
G1 X67.3 Y126.6 F1500
G1 X67.0 Y126.6 F1500
G1 X66.9 Y126.7 F1500
G1 X66.8 Y126.7 F1500
G1 X66.8 Y126.8 F1500
G1 X66.9 Y126.7 F1500
G1 X67.0 Y126.7 F1500
G1 X67.1 Y126.6 F1500
G1 X67.3 Y126.6 F1500
G1 X67.4 Y126.5 F1500
G1 X67.6 Y126.5 F1500
G1 X67.7 Y126.4 F1500
G1 X67.9 Y126.4 F1500
G1 X68.0 Y126.3 F1500
G1 X68.2 Y126.3 F1500
G1 X68.3 Y126.2 F1500
G1 X68.6 Y126.2 F1500
G1 X68.7 Y126.3 F1500
G1 X68.6 Y126.4 F1500
G1 X68.4 Y126.4 F1500
G1 X68.3 Y126.5 F1500
G1 X68.2 Y126.5 F1500
G1 X68.1 Y126.6 F1500
G1 X68.0 Y126.6 F1500
G1 X67.9 Y126.7 F1500
G1 X67.7 Y126.7 F1500
G1 X67.6 Y126.8 F1500
G1 X67.5 Y126.8 F1500
G1 X67.4 Y126.9 F1500
G1 X67.3 Y126.9 F1500
G1 X67.2 Y127.0 F1500
G1 X67.1 Y126.9 F1500
G1 X67.2 Y127.0 F1500
G1 X67.3 Y126.9 F1500
G1 X67.4 Y126.9 F1500
G1 X67.5 Y126.8 F1500
G1 X67.6 Y126.8 F1500
G1 X67.7 Y126.7 F1500
G1 X68.0 Y126.7 F1500
G1 X68.1 Y126.6 F1500
G1 X68.2 Y126.6 F1500
G1 X68.3 Y126.5 F1500
G1 X68.4 Y126.5 F1500
G1 X68.5 Y126.4 F1500
G1 X68.6 Y126.4 F1500
G1 X68.7 Y126.3 F1500
G1 X68.8 Y126.3 F1500
G1 X68.7 Y126.3 F1500
G1 X68.6 Y126.2 F1500
G1 X68.8 Y126.0 F1500
G1 X69.0 Y126.0 F1500
G1 X69.1 Y125.9 F1500
G1 X69.3 Y125.9 F1500
G1 X69.4 Y125.8 F1500
G1 X69.6 Y125.8 F1500
G1 X69.7 Y125.7 F1500
G1 X69.9 Y125.7 F1500
G1 X70.0 Y125.6 F1500
G1 X70.1 Y125.6 F1500
G1 X70.2 Y125.5 F1500
G1 X70.3 Y125.6 F1500
G1 X70.4 Y125.5 F1500
G1 X70.4 Y125.4 F1500
G1 X70.7 Y125.1 F1500
G1 X70.8 Y125.1 F1500
G1 X70.9 Y125.0 F1500
G1 X71.0 Y125.0 F1500
G1 X71.1 Y124.9 F1500
G1 X71.2 Y124.9 F1500
G1 X71.3 Y124.8 F1500
G1 X71.4 Y124.8 F1500
G1 X71.6 Y124.6 F1500
G1 X71.8 Y124.6 F1500
G1 X72.1 Y124.3 F1500
G1 X72.2 Y124.3 F1500
G1 X72.6 Y123.9 F1500
G1 X72.7 Y123.9 F1500
G1 X72.8 Y123.8 F1500
G1 X72.9 Y123.8 F1500
G1 X73.1 Y123.6 F1500
G1 X73.2 Y123.6 F1500
G1 X73.5 Y123.3 F1500
G0 Z5 F3000
G0 X54.6 Y122.9 F6000
G1 Z0 F1000
G1 X54.7 Y122.8 F1500
G1 X54.8 Y122.9 F1500
G1 X54.8 Y123.0 F1500
G1 X54.7 Y123.1 F1500
G1 X54.6 Y123.0 F1500
G0 Z5 F3000
G0 X53.6 Y122.7 F6000
G1 Z0 F1000
G1 X53.7 Y122.8 F1500
G1 X53.7 Y122.9 F1500
G1 X53.6 Y123.0 F1500
G1 X53.6 Y123.4 F1500
G1 X53.7 Y123.5 F1500
G1 X53.7 Y123.6 F1500
G1 X53.8 Y123.7 F1500
G1 X53.8 Y123.6 F1500
G1 X53.6 Y123.4 F1500
G1 X53.6 Y123.1 F1500
G1 X53.7 Y123.0 F1500
G1 X53.8 Y123.0 F1500
G1 X53.9 Y123.1 F1500
G1 X53.8 Y123.2 F1500
G1 X53.8 Y123.3 F1500
G1 X54.0 Y123.5 F1500
G1 X54.0 Y123.7 F1500
G1 X54.0 Y123.4 F1500
G1 X53.9 Y123.4 F1500
G1 X53.8 Y123.3 F1500
G1 X53.9 Y123.2 F1500
G1 X53.9 Y122.7 F1500
G1 X53.9 Y122.9 F1500
G1 X53.8 Y123.0 F1500
G1 X53.7 Y122.9 F1500
G1 X53.7 Y122.8 F1500
G0 Z5 F3000
G0 X73.3 Y122.5 F6000
G1 Z0 F1000
G1 X73.1 Y122.7 F1500
G1 X73.0 Y122.7 F1500
G1 X72.9 Y122.8 F1500
G1 X72.8 Y122.8 F1500
G1 X72.6 Y123.0 F1500
G1 X72.5 Y123.0 F1500
G1 X72.4 Y123.1 F1500
G1 X72.3 Y123.1 F1500
G1 X72.1 Y123.3 F1500
G1 X71.9 Y123.3 F1500
G1 X71.8 Y123.4 F1500
G1 X71.7 Y123.4 F1500
G1 X71.6 Y123.5 F1500
G1 X71.4 Y123.5 F1500
G1 X71.2 Y123.7 F1500
G1 X71.1 Y123.6 F1500
G1 X71.0 Y123.7 F1500
G1 X70.9 Y123.7 F1500
G1 X71.2 Y123.7 F1500
G1 X71.3 Y123.6 F1500
G1 X71.4 Y123.6 F1500
G1 X71.5 Y123.5 F1500
G1 X71.7 Y123.5 F1500
G1 X71.8 Y123.4 F1500
G1 X71.9 Y123.4 F1500
G1 X72.0 Y123.3 F1500
G1 X72.2 Y123.3 F1500
G1 X72.5 Y123.0 F1500
G1 X72.7 Y123.0 F1500
G1 X72.9 Y122.8 F1500
G1 X73.0 Y122.8 F1500
G1 X73.2 Y122.6 F1500
G1 X73.3 Y122.6 F1500
G1 X73.4 Y122.5 F1500
G1 X73.5 Y122.5 F1500
G0 Z5 F3000
G0 X73.3 Y122.0 F6000
G1 Z0 F1000
G1 X73.2 Y122.1 F1500
G1 X73.1 Y122.1 F1500
G1 X72.9 Y122.3 F1500
G1 X72.8 Y122.3 F1500
G1 X72.5 Y122.6 F1500
G1 X72.4 Y122.6 F1500
G1 X72.3 Y122.7 F1500
G1 X72.2 Y122.7 F1500
G1 X72.0 Y122.9 F1500
G1 X71.9 Y122.9 F1500
G1 X71.8 Y123.0 F1500
G1 X71.7 Y123.0 F1500
G1 X71.6 Y123.1 F1500
G1 X71.5 Y123.1 F1500
G1 X71.4 Y123.2 F1500
G1 X71.2 Y123.2 F1500
G1 X71.1 Y123.3 F1500
G1 X71.0 Y123.3 F1500
G1 X70.9 Y123.4 F1500
G1 X70.8 Y123.4 F1500
G1 X70.6 Y123.6 F1500
G1 X70.5 Y123.6 F1500
G1 X70.4 Y123.7 F1500
G1 X70.3 Y123.7 F1500
G1 X70.2 Y123.8 F1500
G1 X70.1 Y123.8 F1500
G1 X69.9 Y124.0 F1500
G1 X69.8 Y124.0 F1500
G1 X69.7 Y124.1 F1500
G1 X69.6 Y124.1 F1500
G1 X69.4 Y124.3 F1500
G1 X69.3 Y124.3 F1500
G1 X69.3 Y124.5 F1500
G1 X69.4 Y124.5 F1500
G1 X69.5 Y124.6 F1500
G1 X70.4 Y124.6 F1500
G1 X70.5 Y124.5 F1500
G1 X70.9 Y124.5 F1500
G1 X71.0 Y124.4 F1500
G1 X71.1 Y124.4 F1500
G1 X71.0 Y124.4 F1500
G1 X70.9 Y124.5 F1500
G1 X70.5 Y124.5 F1500
G1 X70.4 Y124.6 F1500
G1 X69.5 Y124.6 F1500
G1 X69.3 Y124.4 F1500
G1 X69.5 Y124.2 F1500
G1 X69.6 Y124.2 F1500
G1 X69.7 Y124.1 F1500
G1 X69.8 Y124.1 F1500
G1 X69.9 Y124.0 F1500
G1 X70.0 Y124.0 F1500
G1 X70.2 Y123.8 F1500
G1 X70.3 Y123.8 F1500
G1 X70.5 Y123.6 F1500
G1 X70.6 Y123.6 F1500
G1 X70.7 Y123.5 F1500
G1 X70.8 Y123.5 F1500
G1 X70.9 Y123.4 F1500
G1 X71.0 Y123.4 F1500
G1 X71.1 Y123.3 F1500
G1 X71.2 Y123.3 F1500
G1 X71.3 Y123.2 F1500
G1 X71.5 Y123.2 F1500
G1 X71.7 Y123.0 F1500
G1 X71.9 Y123.0 F1500
G1 X72.0 Y122.9 F1500
G1 X72.1 Y122.9 F1500
G1 X72.3 Y122.7 F1500
G1 X72.4 Y122.7 F1500
G1 X72.5 Y122.6 F1500
G1 X72.6 Y122.6 F1500
G1 X72.9 Y122.3 F1500
G1 X73.0 Y122.3 F1500
G1 X73.2 Y122.1 F1500
G1 X73.3 Y122.1 F1500
G1 X73.4 Y122.0 F1500
G1 X73.5 Y122.0 F1500
G0 Z5 F3000
G0 X55.2 Y121.9 F6000
G1 Z0 F1000
G1 X55.3 Y122.0 F1500
G1 X55.3 Y122.1 F1500
G1 X55.2 Y122.2 F1500
G1 X55.2 Y122.3 F1500
G1 X55.1 Y122.4 F1500
G1 X55.1 Y122.5 F1500
G1 X55.0 Y122.6 F1500
G1 X55.0 Y122.7 F1500
G1 X54.8 Y122.9 F1500
G1 X54.7 Y122.8 F1500
G1 X54.7 Y122.7 F1500
G1 X54.8 Y122.6 F1500
G1 X54.8 Y122.5 F1500
G1 X54.9 Y122.4 F1500
G1 X54.9 Y122.3 F1500
G1 X55.0 Y122.2 F1500
G1 X55.0 Y122.1 F1500
G0 Z5 F3000
G0 X53.2 Y121.2 F6000
G1 Z0 F1000
G1 X53.2 Y121.5 F1500
G1 X53.1 Y121.6 F1500
G1 X53.1 Y122.0 F1500
G1 X53.0 Y122.1 F1500
G1 X53.0 Y123.9 F1500
G1 X53.1 Y124.0 F1500
G1 X53.1 Y124.1 F1500
G1 X53.2 Y124.2 F1500
G1 X53.2 Y124.4 F1500
G1 X53.3 Y124.5 F1500
G1 X53.3 Y124.9 F1500
G1 X53.3 Y124.5 F1500
G1 X53.2 Y124.4 F1500
G1 X53.2 Y124.2 F1500
G1 X53.1 Y124.1 F1500
G1 X53.1 Y124.0 F1500
G1 X53.0 Y123.9 F1500
G1 X53.0 Y122.1 F1500
G1 X53.1 Y122.0 F1500
G1 X53.1 Y121.6 F1500
G1 X53.2 Y121.5 F1500
G0 Z5 F3000
G0 X73.5 Y120.3 F6000
G1 Z0 F1000
G1 X73.5 Y120.5 F1500
G1 X73.3 Y120.7 F1500
G1 X73.3 Y121.1 F1500
G1 X73.4 Y121.2 F1500
G1 X73.4 Y121.3 F1500
G1 X73.5 Y121.4 F1500
G1 X73.5 Y121.3 F1500
G1 X73.3 Y121.1 F1500
G1 X73.3 Y120.8 F1500
G1 X73.5 Y120.6 F1500
G0 Z5 F3000
G0 X56.1 Y119.4 F6000
G1 Z0 F1000
G1 X56.2 Y119.3 F1500
G1 X56.4 Y119.5 F1500
G1 X56.4 Y119.6 F1500
G1 X56.3 Y119.7 F1500
G1 X56.1 Y119.5 F1500
G0 Z5 F3000
G0 X52.8 Y119.4 F6000
G1 Z0 F1000
G1 X52.9 Y119.3 F1500
G1 X53.0 Y119.4 F1500
G1 X52.9 Y119.5 F1500
G0 Z5 F3000
G0 X52.9 Y119.2 F6000
G1 Z0 F1000
G1 X53.0 Y119.1 F1500
G1 X53.2 Y119.1 F1500
G1 X53.3 Y119.2 F1500
G1 X53.2 Y119.3 F1500
G1 X53.1 Y119.3 F1500
G1 X53.0 Y119.4 F1500
G1 X52.9 Y119.3 F1500
G0 Z5 F3000
G0 X53.5 Y118.9 F6000
G1 Z0 F1000
G1 X53.5 Y119.1 F1500
G0 Z5 F3000
G0 X71.2 Y118.8 F6000
G1 Z0 F1000
G1 X70.9 Y119.1 F1500
G1 X70.8 Y119.1 F1500
G1 X70.7 Y119.2 F1500
G1 X70.7 Y119.3 F1500
G1 X70.3 Y119.7 F1500
G1 X70.3 Y120.0 F1500
G1 X70.2 Y120.1 F1500
G1 X70.1 Y120.1 F1500
G1 X70.0 Y120.2 F1500
G1 X69.8 Y120.2 F1500
G1 X69.5 Y120.5 F1500
G1 X69.5 Y120.6 F1500
G1 X69.4 Y120.7 F1500
G1 X69.3 Y120.7 F1500
G1 X69.1 Y120.9 F1500
G1 X69.0 Y120.9 F1500
G1 X69.1 Y120.9 F1500
G1 X69.2 Y120.8 F1500
G1 X69.3 Y120.8 F1500
G1 X69.4 Y120.7 F1500
G1 X69.5 Y120.7 F1500
G1 X69.5 Y120.6 F1500
G1 X69.9 Y120.2 F1500
G1 X70.1 Y120.2 F1500
G1 X70.2 Y120.1 F1500
G1 X70.3 Y120.1 F1500
G1 X70.3 Y119.8 F1500
G1 X70.7 Y119.4 F1500
G1 X70.7 Y119.3 F1500
G1 X71.0 Y119.0 F1500
G1 X71.1 Y119.0 F1500
G1 X71.1 Y118.9 F1500
G0 Z5 F3000
G0 X52.6 Y118.7 F6000
G1 Z0 F1000
G1 X52.7 Y118.6 F1500
G1 X52.9 Y118.6 F1500
G1 X53.0 Y118.7 F1500
G1 X53.0 Y118.8 F1500
G1 X52.9 Y118.9 F1500
G1 X52.8 Y118.9 F1500
G0 Z5 F3000
G0 X56.5 Y118.6 F6000
G1 Z0 F1000
G1 X56.6 Y118.5 F1500
G1 X56.7 Y118.6 F1500
G1 X56.7 Y118.7 F1500
G1 X56.8 Y118.8 F1500
G1 X56.8 Y118.9 F1500
G1 X56.7 Y119.0 F1500
G1 X56.6 Y118.9 F1500
G1 X56.7 Y119.0 F1500
G1 X56.7 Y119.1 F1500
G1 X56.6 Y119.2 F1500
G1 X56.7 Y119.1 F1500
G1 X56.8 Y119.2 F1500
G1 X56.8 Y119.3 F1500
G1 X56.7 Y119.4 F1500
G1 X56.7 Y119.5 F1500
G1 X56.6 Y119.6 F1500
G1 X56.6 Y119.7 F1500
G1 X56.5 Y119.8 F1500
G1 X56.5 Y119.9 F1500
G1 X56.4 Y120.0 F1500
G1 X56.4 Y120.1 F1500
G1 X56.3 Y120.2 F1500
G1 X56.3 Y120.3 F1500
G1 X56.2 Y120.4 F1500
G1 X56.2 Y120.5 F1500
G1 X56.1 Y120.6 F1500
G1 X56.1 Y120.7 F1500
G1 X55.9 Y120.9 F1500
G1 X55.9 Y121.0 F1500
G1 X55.8 Y121.1 F1500
G1 X55.8 Y121.2 F1500
G1 X55.7 Y121.3 F1500
G1 X55.7 Y121.4 F1500
G1 X55.6 Y121.5 F1500
G1 X55.6 Y121.6 F1500
G1 X55.5 Y121.7 F1500
G1 X55.5 Y121.8 F1500
G1 X55.3 Y122.0 F1500
G1 X55.2 Y121.9 F1500
G1 X55.2 Y121.8 F1500
G1 X55.3 Y121.7 F1500
G1 X55.3 Y121.6 F1500
G1 X55.4 Y121.5 F1500
G1 X55.4 Y121.4 F1500
G1 X55.5 Y121.3 F1500
G1 X55.5 Y121.2 F1500
G1 X55.6 Y121.1 F1500
G1 X55.6 Y121.0 F1500
G1 X55.7 Y120.9 F1500
G1 X55.7 Y120.8 F1500
G1 X55.9 Y120.6 F1500
G1 X55.9 Y120.5 F1500
G1 X56.0 Y120.4 F1500
G1 X56.0 Y120.3 F1500
G1 X56.1 Y120.2 F1500
G1 X56.1 Y120.1 F1500
G1 X56.2 Y120.0 F1500
G1 X56.2 Y119.9 F1500
G1 X56.3 Y119.8 F1500
G1 X56.3 Y119.7 F1500
G1 X56.4 Y119.6 F1500
G1 X56.4 Y119.5 F1500
G1 X56.5 Y119.4 F1500
G1 X56.4 Y119.5 F1500
G1 X56.2 Y119.3 F1500
G1 X56.2 Y119.2 F1500
G1 X56.3 Y119.1 F1500
G1 X56.3 Y119.0 F1500
G1 X56.4 Y118.9 F1500
G1 X56.4 Y118.8 F1500
G1 X56.5 Y118.7 F1500
G0 Z5 F3000
G0 X53.6 Y118.6 F6000
G1 Z0 F1000
G1 X53.7 Y118.5 F1500
G1 X53.8 Y118.6 F1500
G1 X53.8 Y118.7 F1500
G1 X53.7 Y118.8 F1500
G1 X53.6 Y118.7 F1500
G0 Z5 F3000
G0 X52.5 Y118.6 F6000
G1 Z0 F1000
G1 X52.6 Y118.5 F1500
G1 X52.7 Y118.6 F1500
G1 X52.6 Y118.7 F1500
G0 Z5 F3000
G0 X57.1 Y118.4 F6000
G1 Z0 F1000
G1 X57.2 Y118.5 F1500
G1 X57.2 Y118.6 F1500
G1 X57.1 Y118.7 F1500
G1 X57.1 Y118.8 F1500
G1 X57.0 Y118.9 F1500
G1 X57.0 Y119.0 F1500
G1 X56.8 Y119.2 F1500
G1 X56.7 Y119.1 F1500
G1 X56.7 Y119.0 F1500
G1 X56.8 Y118.9 F1500
G1 X56.8 Y118.8 F1500
G1 X56.9 Y118.7 F1500
G1 X56.9 Y118.6 F1500
G0 Z5 F3000
G0 X57.8 Y118.4 F6000
G1 Z0 F1000
G1 X57.8 Y118.6 F1500
G1 X58.1 Y118.9 F1500
G1 X58.1 Y119.0 F1500
G1 X58.2 Y119.0 F1500
G1 X58.4 Y119.2 F1500
G1 X58.4 Y119.4 F1500
G1 X58.6 Y119.6 F1500
G1 X58.6 Y119.7 F1500
G1 X58.7 Y119.8 F1500
G1 X58.6 Y119.9 F1500
G1 X58.6 Y120.2 F1500
G1 X58.9 Y120.5 F1500
G1 X58.9 Y120.4 F1500
G1 X58.8 Y120.3 F1500
G1 X58.7 Y120.3 F1500
G1 X58.6 Y120.2 F1500
G1 X58.6 Y119.9 F1500
G1 X58.7 Y119.8 F1500
G1 X58.6 Y119.7 F1500
G1 X58.6 Y119.5 F1500
G1 X58.4 Y119.3 F1500
G1 X58.4 Y119.2 F1500
G1 X58.3 Y119.1 F1500
G1 X58.3 Y119.0 F1500
G1 X58.2 Y119.0 F1500
G1 X58.1 Y118.9 F1500
G1 X58.1 Y118.8 F1500
G1 X57.8 Y118.5 F1500
G0 Z5 F3000
G0 X57.1 Y118.3 F6000
G1 Z0 F1000
G1 X57.2 Y118.2 F1500
G1 X57.3 Y118.3 F1500
G1 X57.3 Y118.4 F1500
G1 X57.2 Y118.5 F1500
G1 X57.1 Y118.4 F1500
G0 Z5 F3000
G0 X52.5 Y118.1 F6000
G1 Z0 F1000
G1 X52.6 Y118.2 F1500
G1 X52.6 Y118.5 F1500
G1 X52.5 Y118.6 F1500
G1 X52.4 Y118.6 F1500
G1 X52.3 Y118.5 F1500
G1 X52.3 Y118.3 F1500
G0 Z5 F3000
G0 X52.5 Y118.1 F6000
G1 Z0 F1000
G1 X52.6 Y118.0 F1500
G1 X52.7 Y118.0 F1500
G1 X52.8 Y118.1 F1500
G1 X52.8 Y118.4 F1500
G1 X52.9 Y118.5 F1500
G1 X52.8 Y118.6 F1500
G1 X52.7 Y118.6 F1500
G1 X52.6 Y118.5 F1500
G1 X52.6 Y118.2 F1500
G0 Z5 F3000
G0 X52.1 Y118.1 F6000
G1 Z0 F1000
G1 X52.1 Y118.2 F1500
G0 Z5 F3000
G0 X57.4 Y117.9 F6000
G1 Z0 F1000
G1 X57.5 Y118.0 F1500
G1 X57.5 Y118.1 F1500
G1 X57.6 Y118.2 F1500
G1 X57.6 Y118.3 F1500
G1 X57.5 Y118.4 F1500
G1 X57.5 Y118.5 F1500
G1 X57.4 Y118.6 F1500
G1 X57.4 Y118.7 F1500
G1 X57.3 Y118.8 F1500
G1 X57.3 Y118.9 F1500
G1 X57.2 Y119.0 F1500
G1 X57.2 Y119.1 F1500
G1 X57.1 Y119.2 F1500
G1 X57.1 Y119.3 F1500
G1 X57.0 Y119.4 F1500
G1 X57.0 Y119.5 F1500
G1 X56.9 Y119.6 F1500
G1 X56.9 Y119.7 F1500
G1 X56.7 Y119.9 F1500
G1 X56.7 Y120.0 F1500
G1 X56.6 Y120.1 F1500
G1 X56.6 Y120.2 F1500
G1 X56.5 Y120.3 F1500
G1 X56.5 Y120.4 F1500
G1 X56.4 Y120.5 F1500
G1 X56.4 Y120.6 F1500
G1 X56.2 Y120.8 F1500
G1 X56.1 Y120.7 F1500
G1 X56.1 Y120.6 F1500
G1 X56.2 Y120.5 F1500
G1 X56.2 Y120.4 F1500
G1 X56.3 Y120.3 F1500
G1 X56.3 Y120.2 F1500
G1 X56.4 Y120.1 F1500
G1 X56.4 Y120.0 F1500
G1 X56.5 Y119.9 F1500
G1 X56.5 Y119.8 F1500
G1 X56.6 Y119.7 F1500
G1 X56.6 Y119.6 F1500
G1 X56.8 Y119.4 F1500
G1 X56.8 Y119.3 F1500
G1 X56.9 Y119.2 F1500
G1 X56.9 Y119.1 F1500
G1 X57.0 Y119.0 F1500
G1 X57.0 Y118.9 F1500
G1 X57.1 Y118.8 F1500
G1 X57.1 Y118.7 F1500
G1 X57.2 Y118.6 F1500
G1 X57.2 Y118.5 F1500
G1 X57.3 Y118.4 F1500
G1 X57.3 Y118.3 F1500
G1 X57.2 Y118.2 F1500
G1 X57.2 Y118.1 F1500
G0 Z5 F3000
G0 X53.2 Y117.9 F6000
G1 Z0 F1000
G1 X53.1 Y118.0 F1500
G1 X53.2 Y118.1 F1500
G1 X53.1 Y118.2 F1500
G1 X53.0 Y118.2 F1500
G1 X53.2 Y118.2 F1500
G1 X53.3 Y118.3 F1500
G1 X53.2 Y118.2 F1500
G0 Z5 F3000
G0 X73.4 Y117.6 F6000
G1 Z0 F1000
G1 X73.3 Y117.7 F1500
G1 X73.2 Y117.7 F1500
G1 X72.9 Y118.0 F1500
G1 X72.8 Y118.0 F1500
G1 X72.6 Y118.2 F1500
G1 X72.5 Y118.2 F1500
G1 X72.0 Y118.7 F1500
G1 X71.9 Y118.7 F1500
G1 X71.4 Y119.2 F1500
G1 X71.3 Y119.2 F1500
G1 X70.9 Y119.6 F1500
G1 X70.9 Y119.7 F1500
G1 X70.8 Y119.8 F1500
G1 X70.7 Y119.8 F1500
G1 X70.7 Y119.9 F1500
G1 X71.4 Y119.2 F1500
G1 X71.5 Y119.2 F1500
G1 X72.0 Y118.7 F1500
G1 X72.1 Y118.7 F1500
G1 X72.7 Y118.1 F1500
G1 X72.8 Y118.1 F1500
G1 X72.9 Y118.0 F1500
G1 X73.0 Y118.0 F1500
G1 X73.3 Y117.7 F1500
G1 X73.4 Y117.7 F1500
G1 X73.5 Y117.6 F1500
G0 Z5 F3000
G0 X57.0 Y117.6 F6000
G1 Z0 F1000
G1 X57.1 Y117.5 F1500
G1 X57.4 Y117.8 F1500
G1 X57.4 Y117.9 F1500
G1 X57.2 Y118.1 F1500
G1 X57.1 Y118.0 F1500
G1 X57.0 Y118.1 F1500
G1 X57.1 Y118.0 F1500
G1 X57.2 Y118.1 F1500
G1 X57.2 Y118.2 F1500
G1 X57.1 Y118.3 F1500
G1 X57.1 Y118.4 F1500
G1 X56.9 Y118.6 F1500
G1 X56.9 Y118.7 F1500
G1 X56.8 Y118.8 F1500
G1 X56.7 Y118.7 F1500
G1 X56.7 Y118.6 F1500
G1 X56.6 Y118.5 F1500
G1 X56.6 Y118.4 F1500
G1 X56.8 Y118.2 F1500
G1 X56.9 Y118.3 F1500
G1 X56.8 Y118.2 F1500
G1 X56.8 Y118.0 F1500
G1 X57.0 Y117.8 F1500
G0 Z5 F3000
G0 X53.5 Y117.6 F6000
G1 Z0 F1000
G1 X53.6 Y117.7 F1500
G1 X53.6 Y117.9 F1500
G1 X53.5 Y118.0 F1500
G1 X53.4 Y117.9 F1500
G1 X53.4 Y117.8 F1500
G1 X53.4 Y118.0 F1500
G1 X53.6 Y118.0 F1500
G1 X53.6 Y117.7 F1500
G0 Z5 F3000
G0 X52.8 Y117.3 F6000
G1 Z0 F1000
G1 X52.9 Y117.2 F1500
G1 X53.0 Y117.3 F1500
G1 X53.0 Y117.5 F1500
G1 X52.9 Y117.6 F1500
G1 X52.8 Y117.5 F1500
G0 Z5 F3000
G0 X53.9 Y117.2 F6000
G1 Z0 F1000
G1 X53.9 Y117.4 F1500
G1 X54.0 Y117.5 F1500
G1 X54.0 Y117.6 F1500
G1 X53.9 Y117.7 F1500
G1 X54.1 Y117.5 F1500
G1 X54.0 Y117.5 F1500
G1 X53.9 Y117.4 F1500
G1 X53.9 Y117.3 F1500
G1 X54.0 Y117.2 F1500
G1 X54.1 Y117.3 F1500
G1 X54.1 Y117.2 F1500
G0 Z5 F3000
G0 X54.5 Y117.0 F6000
G1 Z0 F1000
G1 X54.5 Y117.4 F1500
G0 Z5 F3000
G0 X52.7 Y117.0 F6000
G1 Z0 F1000
G1 X52.8 Y116.9 F1500
G1 X52.9 Y116.9 F1500
G1 X53.0 Y117.0 F1500
G1 X53.0 Y117.1 F1500
G1 X52.9 Y117.2 F1500
G1 X52.8 Y117.2 F1500
G1 X52.7 Y117.1 F1500
G0 Z5 F3000
G0 X54.2 Y116.9 F6000
G1 Z0 F1000
G1 X54.3 Y117.0 F1500
G1 X54.3 Y117.5 F1500
G1 X54.4 Y117.6 F1500
G1 X54.3 Y117.5 F1500
G1 X54.3 Y117.0 F1500
G0 Z5 F3000
G0 X54.4 Y116.6 F6000
G1 Z0 F1000
G1 X54.5 Y116.5 F1500
G1 X54.6 Y116.6 F1500
G1 X54.6 Y116.7 F1500
G1 X54.5 Y116.8 F1500
G1 X54.4 Y116.7 F1500
G0 Z5 F3000
G0 X53.3 Y116.2 F6000
G1 Z0 F1000
G1 X53.4 Y116.1 F1500
G1 X53.6 Y116.3 F1500
G1 X53.6 Y116.4 F1500
G1 X53.5 Y116.5 F1500
G1 X53.3 Y116.3 F1500
G0 Z5 F3000
G0 X54.9 Y116.1 F6000
G1 Z0 F1000
G1 X54.9 Y116.3 F1500
G1 X54.8 Y116.4 F1500
G1 X54.9 Y116.3 F1500
G0 Z5 F3000
G0 X54.7 Y116.1 F6000
G1 Z0 F1000
G1 X54.7 Y116.2 F1500
G1 X54.4 Y116.5 F1500
G1 X54.4 Y116.8 F1500
G1 X54.6 Y116.8 F1500
G1 X54.6 Y116.6 F1500
G1 X54.5 Y116.5 F1500
G1 X54.5 Y116.4 F1500
G1 X54.7 Y116.2 F1500
G0 Z5 F3000
G0 X68.9 Y116.0 F6000
G1 Z0 F1000
G1 X68.9 Y116.1 F1500
G0 Z5 F3000
G0 X52.5 Y116.0 F6000
G1 Z0 F1000
G1 X52.5 Y116.2 F1500
G1 X52.4 Y116.3 F1500
G1 X52.2 Y116.3 F1500
G1 X52.2 Y116.6 F1500
G1 X52.3 Y116.7 F1500
G1 X52.4 Y116.7 F1500
G1 X52.6 Y116.9 F1500
G1 X52.6 Y117.0 F1500
G1 X52.7 Y117.1 F1500
G1 X52.6 Y117.2 F1500
G1 X52.6 Y117.3 F1500
G1 X52.6 Y117.2 F1500
G1 X52.7 Y117.1 F1500
G1 X52.8 Y117.2 F1500
G1 X52.8 Y117.5 F1500
G1 X53.0 Y117.7 F1500
G1 X53.1 Y117.6 F1500
G1 X53.0 Y117.5 F1500
G1 X53.0 Y117.0 F1500
G1 X53.1 Y116.9 F1500
G1 X53.2 Y116.9 F1500
G1 X53.3 Y117.0 F1500
G1 X53.3 Y117.1 F1500
G1 X53.2 Y117.2 F1500
G1 X53.2 Y117.4 F1500
G1 X53.4 Y117.4 F1500
G1 X53.4 Y117.3 F1500
G1 X53.5 Y117.2 F1500
G1 X53.3 Y117.4 F1500
G1 X53.2 Y117.3 F1500
G1 X53.2 Y117.2 F1500
G1 X53.4 Y117.0 F1500
G1 X53.4 Y116.6 F1500
G1 X53.6 Y116.4 F1500
G1 X53.7 Y116.5 F1500
G1 X53.7 Y116.6 F1500
G1 X53.6 Y116.7 F1500
G1 X53.6 Y117.0 F1500
G1 X53.6 Y116.7 F1500
G1 X53.9 Y116.4 F1500
G1 X53.9 Y116.1 F1500
G1 X53.9 Y116.4 F1500
G1 X53.8 Y116.5 F1500
G1 X53.7 Y116.5 F1500
G1 X53.6 Y116.4 F1500
G1 X53.7 Y116.3 F1500
G1 X53.7 Y116.1 F1500
G1 X53.7 Y116.2 F1500
G1 X53.6 Y116.3 F1500
G1 X53.5 Y116.2 F1500
G1 X53.5 Y116.1 F1500
G1 X53.4 Y116.1 F1500
G1 X53.3 Y116.2 F1500
G1 X53.3 Y116.3 F1500
G1 X53.2 Y116.4 F1500
G1 X53.0 Y116.4 F1500
G1 X53.1 Y116.4 F1500
G1 X53.2 Y116.5 F1500
G1 X53.1 Y116.6 F1500
G1 X52.9 Y116.6 F1500
G1 X53.2 Y116.6 F1500
G1 X53.2 Y116.4 F1500
G1 X53.3 Y116.3 F1500
G1 X53.5 Y116.5 F1500
G1 X53.4 Y116.6 F1500
G1 X53.4 Y116.9 F1500
G1 X53.3 Y117.0 F1500
G1 X53.2 Y116.9 F1500
G1 X53.2 Y116.8 F1500
G1 X53.0 Y117.0 F1500
G1 X52.9 Y116.9 F1500
G1 X52.8 Y116.9 F1500
G1 X52.7 Y117.0 F1500
G1 X52.5 Y116.8 F1500
G1 X52.5 Y116.7 F1500
G1 X52.4 Y116.7 F1500
G1 X52.2 Y116.5 F1500
G1 X52.2 Y116.4 F1500
G1 X52.3 Y116.3 F1500
G1 X52.5 Y116.3 F1500
G1 X52.5 Y116.1 F1500
G1 X52.6 Y116.0 F1500
G0 Z5 F3000
G0 X54.2 Y115.8 F6000
G1 Z0 F1000
G1 X54.2 Y115.9 F1500
G1 X54.1 Y116.0 F1500
G1 X54.2 Y116.0 F1500
G0 Z5 F3000
G0 X55.6 Y115.5 F6000
G1 Z0 F1000
G1 X55.6 Y115.6 F1500
G1 X55.5 Y115.7 F1500
G1 X55.6 Y115.6 F1500
G0 Z5 F3000
G0 X69.4 Y115.4 F6000
G1 Z0 F1000
G1 X69.5 Y115.3 F1500
G1 X69.6 Y115.4 F1500
G1 X69.5 Y115.5 F1500
G0 Z5 F3000
G0 X53.9 Y115.4 F6000
G1 Z0 F1000
G1 X54.0 Y115.3 F1500
G1 X54.2 Y115.5 F1500
G1 X54.1 Y115.6 F1500
G1 X54.0 Y115.6 F1500
G1 X53.9 Y115.7 F1500
G1 X53.7 Y115.5 F1500
G1 X53.8 Y115.4 F1500
G0 Z5 F3000
G0 X69.3 Y115.3 F6000
G1 Z0 F1000
G1 X69.4 Y115.2 F1500
G1 X69.5 Y115.3 F1500
G1 X69.4 Y115.4 F1500
G0 Z5 F3000
G0 X69.2 Y115.2 F6000
G1 Z0 F1000
G1 X69.3 Y115.1 F1500
G1 X69.4 Y115.2 F1500
G1 X69.3 Y115.3 F1500
G0 Z5 F3000
G0 X53.8 Y115.2 F6000
G1 Z0 F1000
G1 X53.9 Y115.1 F1500
G1 X54.0 Y115.2 F1500
G1 X54.0 Y115.3 F1500
G1 X53.9 Y115.4 F1500
G1 X53.8 Y115.3 F1500
G0 Z5 F3000
G0 X69.3 Y115.0 F6000
G1 Z0 F1000
G1 X69.4 Y114.9 F1500
G1 X69.5 Y115.0 F1500
G1 X69.5 Y115.1 F1500
G1 X69.4 Y115.2 F1500
G1 X69.3 Y115.1 F1500
G0 Z5 F3000
G0 X67.5 Y115.0 F6000
G1 Z0 F1000
G1 X67.5 Y115.1 F1500
G1 X67.6 Y115.1 F1500
G1 X68.0 Y115.5 F1500
G1 X67.9 Y115.6 F1500
G1 X67.9 Y115.7 F1500
G1 X67.8 Y115.8 F1500
G1 X67.6 Y115.8 F1500
G1 X67.9 Y115.8 F1500
G1 X67.9 Y115.6 F1500
G1 X68.0 Y115.5 F1500
G1 X68.2 Y115.7 F1500
G1 X68.2 Y115.8 F1500
G1 X68.4 Y116.0 F1500
G1 X68.4 Y116.1 F1500
G1 X68.3 Y116.2 F1500
G1 X68.3 Y116.3 F1500
G1 X68.2 Y116.4 F1500
G1 X68.2 Y116.5 F1500
G1 X68.1 Y116.6 F1500
G1 X68.1 Y116.7 F1500
G1 X67.9 Y116.9 F1500
G1 X67.9 Y117.0 F1500
G1 X67.8 Y117.1 F1500
G1 X67.8 Y117.2 F1500
G1 X67.5 Y117.5 F1500
G1 X67.5 Y117.6 F1500
G1 X67.3 Y117.8 F1500
G1 X67.3 Y117.9 F1500
G1 X67.0 Y118.2 F1500
G1 X67.0 Y118.3 F1500
G1 X65.5 Y119.8 F1500
G1 X65.4 Y119.8 F1500
G1 X65.2 Y120.0 F1500
G1 X65.1 Y120.0 F1500
G1 X64.8 Y120.3 F1500
G1 X64.7 Y120.3 F1500
G1 X64.6 Y120.4 F1500
G1 X64.5 Y120.4 F1500
G1 X64.3 Y120.6 F1500
G1 X64.2 Y120.6 F1500
G1 X64.1 Y120.7 F1500
G1 X64.0 Y120.7 F1500
G1 X63.9 Y120.8 F1500
G1 X63.8 Y120.8 F1500
G1 X63.7 Y120.9 F1500
G1 X63.6 Y120.9 F1500
G1 X63.5 Y121.0 F1500
G1 X63.3 Y121.0 F1500
G1 X63.1 Y121.2 F1500
G1 X62.8 Y121.2 F1500
G1 X62.7 Y121.3 F1500
G1 X60.9 Y121.3 F1500
G1 X60.8 Y121.2 F1500
G1 X60.6 Y121.2 F1500
G1 X60.5 Y121.1 F1500
G1 X60.4 Y121.1 F1500
G1 X60.2 Y120.9 F1500
G1 X60.1 Y120.9 F1500
G1 X60.0 Y120.8 F1500
G1 X60.2 Y120.6 F1500
G1 X60.4 Y120.8 F1500
G1 X59.9 Y120.3 F1500
G1 X59.9 Y120.2 F1500
G1 X59.7 Y120.0 F1500
G1 X59.8 Y119.9 F1500
G1 X59.8 Y119.5 F1500
G1 X59.9 Y119.4 F1500
G1 X59.8 Y119.4 F1500
G1 X59.8 Y119.7 F1500
G1 X59.7 Y119.8 F1500
G1 X59.6 Y119.8 F1500
G1 X59.7 Y119.8 F1500
G1 X59.8 Y119.9 F1500
G1 X59.7 Y120.0 F1500
G1 X59.9 Y120.2 F1500
G1 X59.9 Y120.3 F1500
G1 X60.1 Y120.5 F1500
G1 X60.1 Y120.6 F1500
G1 X60.0 Y120.7 F1500
G1 X59.6 Y120.3 F1500
G1 X59.6 Y120.2 F1500
G1 X58.9 Y119.5 F1500
G1 X58.9 Y119.4 F1500
G1 X58.8 Y119.3 F1500
G1 X58.8 Y119.2 F1500
G1 X58.7 Y119.1 F1500
G1 X58.7 Y118.9 F1500
G1 X58.6 Y118.8 F1500
G1 X58.6 Y118.4 F1500
G1 X58.6 Y118.9 F1500
G1 X58.7 Y119.0 F1500
G1 X58.7 Y119.2 F1500
G1 X58.8 Y119.3 F1500
G1 X58.8 Y119.4 F1500
G1 X58.9 Y119.5 F1500
G1 X58.9 Y119.6 F1500
G1 X59.6 Y120.3 F1500
G1 X59.6 Y120.4 F1500
G1 X60.3 Y121.1 F1500
G1 X60.5 Y121.1 F1500
G1 X60.6 Y121.2 F1500
G1 X60.8 Y121.2 F1500
G1 X60.9 Y121.3 F1500
G1 X62.7 Y121.3 F1500
G1 X62.8 Y121.2 F1500
G1 X63.1 Y121.2 F1500
G1 X63.2 Y121.1 F1500
G1 X63.3 Y121.1 F1500
G1 X63.4 Y121.0 F1500
G1 X63.5 Y121.0 F1500
G1 X63.6 Y120.9 F1500
G1 X63.7 Y120.9 F1500
G1 X63.8 Y120.8 F1500
G1 X64.0 Y120.8 F1500
G1 X64.1 Y120.7 F1500
G1 X64.2 Y120.7 F1500
G1 X64.3 Y120.6 F1500
G1 X64.4 Y120.6 F1500
G1 X64.6 Y120.4 F1500
G1 X64.7 Y120.4 F1500
G1 X64.8 Y120.3 F1500
G1 X64.9 Y120.3 F1500
G1 X65.2 Y120.0 F1500
G1 X65.3 Y120.0 F1500
G1 X65.5 Y119.8 F1500
G1 X65.6 Y119.8 F1500
G1 X67.0 Y118.4 F1500
G1 X67.0 Y118.3 F1500
G1 X67.3 Y118.0 F1500
G1 X67.3 Y117.9 F1500
G1 X67.5 Y117.7 F1500
G1 X67.5 Y117.6 F1500
G1 X67.8 Y117.3 F1500
G1 X67.8 Y117.2 F1500
G1 X67.9 Y117.1 F1500
G1 X67.9 Y117.0 F1500
G1 X68.1 Y116.8 F1500
G1 X68.1 Y116.7 F1500
G1 X68.2 Y116.6 F1500
G1 X68.2 Y116.5 F1500
G1 X68.3 Y116.4 F1500
G1 X68.3 Y116.2 F1500
G1 X68.4 Y116.1 F1500
G1 X68.4 Y116.0 F1500
G1 X68.3 Y115.9 F1500
G1 X68.3 Y115.8 F1500
G1 X68.4 Y115.7 F1500
G1 X68.3 Y115.8 F1500
G1 X68.2 Y115.7 F1500
G1 X68.2 Y115.6 F1500
G1 X67.6 Y115.0 F1500
G0 Z5 F3000
G0 X69.4 Y114.9 F6000
G1 Z0 F1000
G1 X69.5 Y114.8 F1500
G1 X69.6 Y114.9 F1500
G1 X69.5 Y115.0 F1500
G0 Z5 F3000
G0 X68.5 Y114.9 F6000
G1 Z0 F1000
G1 X68.6 Y114.8 F1500
G1 X68.8 Y114.8 F1500
G1 X68.9 Y114.9 F1500
G1 X68.8 Y115.0 F1500
G1 X68.6 Y115.0 F1500
G0 Z5 F3000
G0 X69.5 Y114.8 F6000
G1 Z0 F1000
G1 X69.2 Y115.1 F1500
G1 X69.2 Y115.3 F1500
G1 X69.4 Y115.5 F1500
G1 X69.4 Y115.6 F1500
G1 X69.2 Y115.8 F1500
G1 X69.3 Y115.8 F1500
G1 X69.3 Y115.7 F1500
G1 X69.6 Y115.4 F1500
G1 X69.6 Y115.3 F1500
G1 X69.5 Y115.3 F1500
G1 X69.4 Y115.2 F1500
G1 X69.6 Y115.0 F1500
G1 X69.6 Y114.8 F1500
G0 Z5 F3000
G0 X68.0 Y114.8 F6000
G1 Z0 F1000
G1 X68.1 Y114.8 F1500
G0 Z5 F3000
G0 X53.9 Y114.7 F6000
G1 Z0 F1000
G1 X54.0 Y114.8 F1500
G1 X54.0 Y114.9 F1500
G1 X53.9 Y115.0 F1500
G1 X53.9 Y115.1 F1500
G1 X53.8 Y115.2 F1500
G1 X53.8 Y115.4 F1500
G1 X53.7 Y115.5 F1500
G1 X53.6 Y115.4 F1500
G1 X53.7 Y115.5 F1500
G1 X53.6 Y115.6 F1500
G1 X53.5 Y115.6 F1500
G1 X53.4 Y115.7 F1500
G1 X53.3 Y115.7 F1500
G1 X53.2 Y115.8 F1500
G1 X53.1 Y115.7 F1500
G1 X53.1 Y115.6 F1500
G1 X53.2 Y115.5 F1500
G1 X53.3 Y115.5 F1500
G1 X53.4 Y115.4 F1500
G1 X53.4 Y115.3 F1500
G1 X53.7 Y115.0 F1500
G1 X53.7 Y114.9 F1500
G0 Z5 F3000
G0 X53.3 Y114.7 F6000
G1 Z0 F1000
G1 X53.4 Y114.6 F1500
G1 X53.5 Y114.7 F1500
G1 X53.4 Y114.8 F1500
G0 Z5 F3000
G0 X68.4 Y114.5 F6000
G1 Z0 F1000
G1 X68.4 Y114.8 F1500
G1 X68.5 Y114.9 F1500
G1 X68.4 Y115.0 F1500
G1 X68.3 Y115.0 F1500
G1 X68.3 Y115.2 F1500
G1 X68.4 Y115.3 F1500
G1 X68.5 Y115.2 F1500
G1 X68.6 Y115.3 F1500
G1 X68.7 Y115.3 F1500
G1 X68.8 Y115.4 F1500
G1 X68.8 Y115.7 F1500
G1 X68.7 Y115.8 F1500
G1 X68.6 Y115.7 F1500
G1 X68.6 Y115.5 F1500
G1 X68.6 Y115.8 F1500
G1 X68.7 Y115.8 F1500
G1 X68.8 Y115.7 F1500
G1 X68.9 Y115.8 F1500
G1 X69.0 Y115.8 F1500
G1 X68.9 Y115.8 F1500
G1 X68.8 Y115.7 F1500
G1 X68.8 Y115.4 F1500
G1 X68.6 Y115.2 F1500
G1 X68.5 Y115.2 F1500
G1 X68.4 Y115.3 F1500
G1 X68.3 Y115.2 F1500
G1 X68.3 Y115.1 F1500
G1 X68.4 Y115.0 F1500
G1 X69.0 Y115.0 F1500
G1 X68.9 Y114.9 F1500
G1 X68.9 Y114.8 F1500
G1 X68.7 Y114.8 F1500
G1 X68.6 Y114.7 F1500
G1 X68.6 Y114.5 F1500
G1 X68.6 Y114.8 F1500
G1 X68.5 Y114.9 F1500
G1 X68.4 Y114.8 F1500
G0 Z5 F3000
G0 X52.7 Y114.5 F6000
G1 Z0 F1000
G1 X52.8 Y114.4 F1500
G1 X52.9 Y114.5 F1500
G1 X52.8 Y114.6 F1500
G0 Z5 F3000
G0 X69.3 Y114.4 F6000
G1 Z0 F1000
G1 X69.4 Y114.3 F1500
G1 X69.6 Y114.3 F1500
G1 X69.7 Y114.4 F1500
G1 X69.6 Y114.5 F1500
G1 X69.4 Y114.5 F1500
G0 Z5 F3000
G0 X53.4 Y114.3 F6000
G1 Z0 F1000
G1 X53.6 Y114.5 F1500
G1 X53.6 Y114.6 F1500
G1 X53.5 Y114.7 F1500
G1 X53.4 Y114.6 F1500
G1 X53.3 Y114.7 F1500
G1 X53.2 Y114.6 F1500
G1 X53.2 Y114.5 F1500
G0 Z5 F3000
G0 X68.6 Y114.1 F6000
G1 Z0 F1000
G1 X68.7 Y114.0 F1500
G1 X68.8 Y114.0 F1500
G1 X68.9 Y114.1 F1500
G1 X68.8 Y114.2 F1500
G1 X68.7 Y114.2 F1500
G0 Z5 F3000
G0 X67.9 Y114.1 F6000
G1 Z0 F1000
G1 X67.8 Y114.2 F1500
G1 X67.8 Y114.3 F1500
G1 X67.9 Y114.4 F1500
G1 X67.9 Y114.5 F1500
G1 X67.9 Y114.2 F1500
G1 X68.0 Y114.1 F1500
G1 X68.1 Y114.2 F1500
G1 X68.1 Y114.6 F1500
G1 X68.1 Y114.2 F1500
G1 X68.0 Y114.1 F1500
G0 Z5 F3000
G0 X55.2 Y114.1 F6000
G1 Z0 F1000
G1 X55.2 Y114.2 F1500
G0 Z5 F3000
G0 X54.9 Y114.1 F6000
G1 Z0 F1000
G1 X54.9 Y114.2 F1500
G1 X55.0 Y114.3 F1500
G1 X54.9 Y114.4 F1500
G1 X54.9 Y114.5 F1500
G1 X55.0 Y114.4 F1500
G1 X55.0 Y114.3 F1500
G1 X54.9 Y114.2 F1500
G0 Z5 F3000
G0 X52.9 Y114.1 F6000
G1 Z0 F1000
G1 X53.0 Y114.0 F1500
G1 X53.1 Y114.1 F1500
G1 X53.1 Y114.2 F1500
G1 X53.0 Y114.3 F1500
G1 X53.0 Y114.4 F1500
G1 X52.9 Y114.5 F1500
G1 X52.7 Y114.3 F1500
G1 X52.6 Y114.3 F1500
G1 X52.5 Y114.2 F1500
G1 X52.6 Y114.1 F1500
G0 Z5 F3000
G0 X52.3 Y114.1 F6000
G1 Z0 F1000
G1 X52.3 Y114.2 F1500
G0 Z5 F3000
G0 X54.7 Y113.7 F6000
G1 Z0 F1000
G1 X54.7 Y113.9 F1500
G1 X54.4 Y114.2 F1500
G1 X54.4 Y114.4 F1500
G1 X54.3 Y114.5 F1500
G1 X54.3 Y114.8 F1500
G1 X54.5 Y115.0 F1500
G1 X54.4 Y115.1 F1500
G1 X54.5 Y115.2 F1500
G1 X54.5 Y115.1 F1500
G1 X54.6 Y115.0 F1500
G1 X54.3 Y114.7 F1500
G1 X54.3 Y114.5 F1500
G1 X54.4 Y114.4 F1500
G1 X54.4 Y114.3 F1500
G1 X54.7 Y114.0 F1500
G0 Z5 F3000
G0 X67.8 Y113.6 F6000
G1 Z0 F1000
G1 X67.9 Y113.5 F1500
G1 X68.1 Y113.5 F1500
G1 X68.2 Y113.6 F1500
G1 X68.1 Y113.7 F1500
G1 X67.9 Y113.7 F1500
G0 Z5 F3000
G0 X69.0 Y113.5 F6000
G1 Z0 F1000
G1 X69.1 Y113.4 F1500
G1 X69.3 Y113.6 F1500
G1 X69.3 Y113.7 F1500
G1 X69.2 Y113.8 F1500
G1 X69.0 Y113.6 F1500
G0 Z5 F3000
G0 X68.6 Y113.4 F6000
G1 Z0 F1000
G1 X68.7 Y113.3 F1500
G1 X68.8 Y113.3 F1500
G1 X69.0 Y113.5 F1500
G1 X69.0 Y113.7 F1500
G1 X68.9 Y113.8 F1500
G1 X68.9 Y113.9 F1500
G1 X68.8 Y114.0 F1500
G1 X68.7 Y114.0 F1500
G1 X68.6 Y113.9 F1500
G1 X68.7 Y113.8 F1500
G1 X68.7 Y113.5 F1500
G0 Z5 F3000
G0 X66.6 Y113.3 F6000
G1 Z0 F1000
G1 X66.7 Y113.2 F1500
G1 X66.9 Y113.4 F1500
G1 X66.8 Y113.5 F1500
G1 X66.7 Y113.5 F1500
G1 X66.6 Y113.4 F1500
G0 Z5 F3000
G0 X53.3 Y113.3 F6000
G1 Z0 F1000
G1 X53.4 Y113.2 F1500
G1 X53.5 Y113.3 F1500
G1 X53.5 Y113.5 F1500
G1 X53.4 Y113.6 F1500
G1 X53.4 Y113.7 F1500
G1 X53.3 Y113.8 F1500
G1 X53.3 Y113.9 F1500
G1 X53.1 Y114.1 F1500
G1 X53.0 Y114.0 F1500
G1 X53.0 Y113.9 F1500
G1 X52.9 Y113.9 F1500
G1 X52.8 Y113.8 F1500
G1 X52.8 Y113.7 F1500
G1 X52.9 Y113.6 F1500
G1 X53.0 Y113.7 F1500
G1 X53.1 Y113.7 F1500
G1 X53.0 Y113.7 F1500
G1 X52.9 Y113.6 F1500
G1 X52.9 Y113.5 F1500
G1 X53.1 Y113.3 F1500
G1 X53.2 Y113.3 F1500
G1 X53.3 Y113.4 F1500
G0 Z5 F3000
G0 X52.2 Y113.3 F6000
G1 Z0 F1000
G1 X52.3 Y113.2 F1500
G1 X52.4 Y113.2 F1500
G1 X52.5 Y113.3 F1500
G1 X52.4 Y113.4 F1500
G1 X52.4 Y113.6 F1500
G1 X52.3 Y113.7 F1500
G1 X52.2 Y113.6 F1500
G0 Z5 F3000
G0 X63.1 Y113.2 F6000
G1 Z0 F1000
G1 X63.1 Y113.8 F1500
G1 X63.0 Y113.9 F1500
G1 X62.9 Y113.9 F1500
G1 X63.0 Y113.9 F1500
G1 X63.1 Y114.0 F1500
G0 Z5 F3000
G0 X61.8 Y113.2 F6000
G1 Z0 F1000
G1 X61.8 Y113.4 F1500
G1 X61.7 Y113.5 F1500
G1 X61.6 Y113.5 F1500
G1 X61.9 Y113.8 F1500
G1 X61.8 Y113.9 F1500
G1 X61.8 Y114.3 F1500
G1 X61.5 Y114.6 F1500
G1 X61.5 Y114.7 F1500
G1 X61.2 Y115.0 F1500
G1 X61.2 Y115.1 F1500
G1 X60.0 Y116.3 F1500
G1 X59.9 Y116.3 F1500
G1 X59.3 Y116.9 F1500
G1 X59.2 Y116.9 F1500
G1 X59.1 Y117.0 F1500
G1 X59.0 Y117.0 F1500
G1 X58.9 Y117.1 F1500
G1 X58.8 Y117.1 F1500
G1 X58.6 Y117.3 F1500
G1 X58.5 Y117.3 F1500
G1 X58.3 Y117.5 F1500
G1 X58.1 Y117.5 F1500
G1 X58.1 Y117.6 F1500
G1 X58.0 Y117.7 F1500
G1 X57.9 Y117.7 F1500
G1 X57.8 Y117.8 F1500
G1 X57.6 Y117.8 F1500
G1 X57.6 Y117.9 F1500
G1 X57.5 Y118.0 F1500
G1 X57.4 Y117.9 F1500
G1 X57.4 Y117.8 F1500
G1 X57.3 Y117.7 F1500
G1 X57.3 Y117.6 F1500
G1 X56.9 Y117.2 F1500
G1 X56.9 Y117.1 F1500
G1 X57.1 Y116.9 F1500
G1 X57.2 Y117.0 F1500
G1 X57.2 Y117.1 F1500
G1 X57.2 Y117.0 F1500
G1 X57.3 Y116.9 F1500
G1 X57.4 Y116.9 F1500
G1 X57.5 Y116.8 F1500
G1 X57.6 Y116.8 F1500
G1 X57.7 Y116.7 F1500
G1 X57.9 Y116.7 F1500
G1 X58.2 Y116.4 F1500
G1 X58.3 Y116.4 F1500
G1 X58.4 Y116.3 F1500
G1 X58.5 Y116.3 F1500
G1 X58.6 Y116.2 F1500
G1 X58.7 Y116.2 F1500
G1 X59.0 Y115.9 F1500
G1 X59.1 Y115.9 F1500
G1 X59.1 Y115.8 F1500
G1 X59.2 Y115.7 F1500
G1 X59.3 Y115.7 F1500
G1 X59.9 Y115.1 F1500
G1 X60.0 Y115.1 F1500
G1 X60.2 Y114.9 F1500
G1 X60.2 Y114.8 F1500
G1 X60.5 Y114.5 F1500
G1 X60.4 Y114.5 F1500
G1 X60.2 Y114.7 F1500
G1 X60.2 Y114.8 F1500
G1 X59.8 Y115.2 F1500
G1 X59.7 Y115.2 F1500
G1 X59.0 Y115.9 F1500
G1 X58.9 Y115.9 F1500
G1 X58.6 Y116.2 F1500
G1 X58.5 Y116.2 F1500
G1 X58.3 Y116.4 F1500
G1 X58.2 Y116.4 F1500
G1 X58.0 Y116.6 F1500
G1 X57.9 Y116.6 F1500
G1 X57.8 Y116.7 F1500
G1 X57.7 Y116.7 F1500
G1 X57.6 Y116.8 F1500
G1 X57.5 Y116.8 F1500
G1 X57.4 Y116.9 F1500
G1 X57.3 Y116.9 F1500
G1 X57.2 Y117.0 F1500
G1 X57.1 Y116.9 F1500
G1 X57.1 Y116.7 F1500
G1 X57.0 Y116.6 F1500
G1 X57.0 Y116.7 F1500
G1 X57.1 Y116.8 F1500
G1 X57.1 Y116.9 F1500
G1 X56.9 Y117.1 F1500
G1 X56.8 Y117.0 F1500
G1 X56.8 Y116.9 F1500
G1 X56.7 Y116.8 F1500
G1 X56.7 Y116.7 F1500
G1 X56.6 Y116.6 F1500
G1 X56.6 Y116.5 F1500
G1 X56.5 Y116.4 F1500
G1 X56.6 Y116.3 F1500
G1 X56.7 Y116.3 F1500
G1 X56.8 Y116.4 F1500
G1 X56.8 Y116.5 F1500
G1 X56.8 Y116.4 F1500
G1 X56.7 Y116.3 F1500
G1 X57.0 Y116.0 F1500
G1 X57.1 Y116.0 F1500
G1 X57.2 Y115.9 F1500
G1 X57.4 Y115.9 F1500
G1 X57.6 Y115.7 F1500
G1 X57.7 Y115.7 F1500
G1 X58.0 Y115.4 F1500
G1 X58.1 Y115.4 F1500
G1 X58.2 Y115.3 F1500
G1 X58.3 Y115.3 F1500
G1 X58.5 Y115.1 F1500
G1 X58.3 Y115.3 F1500
G1 X58.1 Y115.3 F1500
G1 X57.8 Y115.6 F1500
G1 X57.7 Y115.6 F1500
G1 X57.4 Y115.9 F1500
G1 X57.2 Y115.9 F1500
G1 X57.1 Y116.0 F1500
G1 X57.0 Y116.0 F1500
G1 X56.9 Y116.1 F1500
G1 X56.8 Y116.1 F1500
G1 X56.8 Y116.2 F1500
G1 X56.7 Y116.3 F1500
G1 X56.6 Y116.3 F1500
G1 X56.5 Y116.4 F1500
G1 X56.4 Y116.3 F1500
G1 X56.4 Y116.2 F1500
G1 X56.3 Y116.1 F1500
G1 X56.3 Y116.0 F1500
G1 X56.2 Y115.9 F1500
G1 X56.2 Y115.7 F1500
G1 X56.3 Y115.6 F1500
G1 X56.3 Y115.3 F1500
G1 X56.3 Y115.6 F1500
G1 X56.2 Y115.7 F1500
G1 X56.1 Y115.6 F1500
G1 X56.1 Y115.4 F1500
G1 X56.0 Y115.3 F1500
G1 X56.1 Y115.4 F1500
G1 X56.1 Y115.7 F1500
G1 X56.2 Y115.8 F1500
G1 X56.2 Y115.9 F1500
G1 X56.3 Y116.0 F1500
G1 X56.3 Y116.1 F1500
G1 X56.4 Y116.2 F1500
G1 X56.4 Y116.4 F1500
G1 X56.6 Y116.6 F1500
G1 X56.6 Y116.7 F1500
G1 X56.7 Y116.8 F1500
G1 X56.7 Y116.9 F1500
G1 X56.9 Y117.1 F1500
G1 X56.9 Y117.3 F1500
G1 X57.1 Y117.5 F1500
G1 X57.0 Y117.6 F1500
G1 X57.0 Y117.7 F1500
G1 X56.9 Y117.8 F1500
G1 X56.9 Y117.9 F1500
G1 X56.8 Y118.0 F1500
G1 X56.8 Y118.2 F1500
G1 X56.7 Y118.3 F1500
G1 X56.6 Y118.3 F1500
G1 X56.6 Y118.5 F1500
G1 X56.5 Y118.6 F1500
G1 X56.5 Y118.7 F1500
G1 X56.4 Y118.8 F1500
G1 X56.4 Y118.9 F1500
G1 X56.2 Y119.1 F1500
G1 X56.2 Y119.3 F1500
G1 X56.0 Y119.5 F1500
G1 X56.0 Y119.6 F1500
G1 X55.9 Y119.7 F1500
G1 X55.9 Y119.8 F1500
G1 X55.6 Y120.1 F1500
G1 X55.6 Y120.2 F1500
G1 X55.5 Y120.3 F1500
G1 X55.5 Y120.5 F1500
G1 X55.4 Y120.6 F1500
G1 X55.4 Y120.7 F1500
G1 X55.3 Y120.8 F1500
G1 X55.3 Y120.9 F1500
G1 X55.1 Y121.1 F1500
G1 X55.1 Y121.2 F1500
G1 X55.0 Y121.3 F1500
G1 X55.0 Y121.4 F1500
G1 X54.9 Y121.5 F1500
G1 X54.9 Y121.6 F1500
G1 X54.7 Y121.8 F1500
G1 X54.7 Y121.9 F1500
G1 X54.6 Y122.0 F1500
G1 X54.6 Y122.1 F1500
G1 X54.5 Y122.2 F1500
G1 X54.5 Y122.3 F1500
G1 X54.4 Y122.4 F1500
G1 X54.4 Y122.5 F1500
G1 X54.3 Y122.6 F1500
G1 X54.3 Y122.8 F1500
G1 X54.2 Y122.9 F1500
G1 X54.3 Y122.8 F1500
G1 X54.3 Y122.7 F1500
G1 X54.4 Y122.6 F1500
G1 X54.4 Y122.5 F1500
G1 X54.5 Y122.4 F1500
G1 X54.6 Y122.5 F1500
G1 X54.5 Y122.4 F1500
G1 X54.5 Y122.3 F1500
G1 X54.6 Y122.2 F1500
G1 X54.7 Y122.3 F1500
G1 X54.6 Y122.2 F1500
G1 X54.6 Y122.1 F1500
G1 X54.7 Y122.0 F1500
G1 X54.8 Y122.1 F1500
G1 X54.7 Y122.0 F1500
G1 X54.7 Y121.9 F1500
G1 X54.9 Y121.7 F1500
G1 X54.9 Y121.6 F1500
G1 X55.0 Y121.5 F1500
G1 X55.0 Y121.4 F1500
G1 X55.1 Y121.3 F1500
G1 X55.2 Y121.4 F1500
G1 X55.1 Y121.3 F1500
G1 X55.1 Y121.2 F1500
G1 X55.2 Y121.1 F1500
G1 X55.2 Y121.0 F1500
G1 X55.3 Y120.9 F1500
G1 X55.3 Y120.8 F1500
G1 X55.5 Y120.6 F1500
G1 X55.6 Y120.6 F1500
G1 X55.5 Y120.5 F1500
G1 X55.5 Y120.4 F1500
G1 X55.6 Y120.3 F1500
G1 X55.6 Y120.2 F1500
G1 X55.8 Y120.0 F1500
G1 X55.8 Y119.9 F1500
G1 X56.0 Y119.7 F1500
G1 X56.0 Y119.6 F1500
G1 X56.1 Y119.5 F1500
G1 X56.3 Y119.7 F1500
G1 X56.3 Y119.8 F1500
G1 X56.2 Y119.9 F1500
G1 X56.2 Y120.0 F1500
G1 X56.1 Y120.1 F1500
G1 X56.1 Y120.2 F1500
G1 X55.9 Y120.4 F1500
G1 X55.8 Y120.3 F1500
G1 X55.9 Y120.4 F1500
G1 X55.9 Y120.5 F1500
G1 X55.8 Y120.6 F1500
G1 X55.8 Y120.7 F1500
G1 X55.7 Y120.8 F1500
G1 X55.7 Y120.9 F1500
G1 X55.6 Y121.0 F1500
G1 X55.6 Y121.1 F1500
G1 X55.5 Y121.2 F1500
G1 X55.5 Y121.3 F1500
G1 X55.4 Y121.4 F1500
G1 X55.4 Y121.5 F1500
G1 X55.2 Y121.7 F1500
G1 X55.2 Y121.9 F1500
G1 X55.0 Y122.1 F1500
G1 X55.0 Y122.2 F1500
G1 X54.9 Y122.3 F1500
G1 X54.9 Y122.4 F1500
G1 X54.8 Y122.5 F1500
G1 X54.8 Y122.6 F1500
G1 X54.7 Y122.7 F1500
G1 X54.7 Y122.8 F1500
G1 X54.6 Y122.9 F1500
G1 X54.6 Y123.0 F1500
G1 X54.4 Y123.2 F1500
G1 X54.4 Y123.3 F1500
G1 X54.3 Y123.4 F1500
G1 X54.3 Y123.5 F1500
G1 X54.2 Y123.6 F1500
G1 X54.3 Y123.5 F1500
G1 X54.3 Y123.4 F1500
G1 X54.4 Y123.3 F1500
G1 X54.4 Y123.2 F1500
G1 X54.6 Y123.0 F1500
G1 X54.7 Y123.1 F1500
G1 X54.7 Y123.2 F1500
G1 X54.6 Y123.3 F1500
G1 X54.6 Y123.4 F1500
G1 X54.5 Y123.5 F1500
G1 X54.5 Y123.6 F1500
G1 X54.3 Y123.8 F1500
G1 X54.3 Y123.9 F1500
G1 X54.2 Y124.0 F1500
G1 X54.1 Y123.9 F1500
G1 X54.2 Y124.0 F1500
G1 X54.2 Y124.1 F1500
G1 X54.1 Y124.2 F1500
G1 X54.1 Y124.3 F1500
G1 X54.0 Y124.4 F1500
G1 X54.0 Y124.5 F1500
G1 X53.9 Y124.6 F1500
G1 X53.9 Y124.7 F1500
G1 X53.8 Y124.8 F1500
G1 X53.8 Y124.9 F1500
G1 X53.7 Y125.0 F1500
G1 X53.7 Y125.1 F1500
G1 X53.5 Y125.3 F1500
G1 X53.4 Y125.2 F1500
G1 X53.4 Y125.1 F1500
G1 X53.5 Y125.0 F1500
G1 X53.3 Y125.2 F1500
G1 X53.1 Y125.0 F1500
G1 X53.1 Y124.6 F1500
G1 X53.0 Y124.5 F1500
G1 X53.0 Y124.3 F1500
G1 X52.9 Y124.2 F1500
G1 X52.9 Y124.1 F1500
G1 X52.8 Y124.1 F1500
G1 X52.6 Y123.9 F1500
G1 X52.6 Y123.8 F1500
G1 X52.5 Y123.7 F1500
G1 X52.5 Y123.6 F1500
G1 X52.7 Y123.4 F1500
G1 X52.7 Y123.1 F1500
G1 X52.8 Y123.0 F1500
G1 X52.8 Y122.0 F1500
G1 X52.9 Y121.9 F1500
G1 X52.9 Y121.6 F1500
G1 X52.8 Y121.5 F1500
G1 X52.8 Y121.3 F1500
G1 X52.9 Y121.2 F1500
G1 X52.9 Y121.0 F1500
G1 X53.1 Y120.8 F1500
G1 X53.1 Y120.6 F1500
G1 X53.1 Y120.7 F1500
G1 X53.0 Y120.8 F1500
G1 X53.0 Y120.9 F1500
G1 X52.9 Y121.0 F1500
G1 X52.9 Y121.1 F1500
G1 X52.8 Y121.2 F1500
G1 X52.8 Y121.5 F1500
G1 X52.5 Y121.8 F1500
G1 X52.4 Y121.8 F1500
G1 X52.1 Y122.1 F1500
G1 X52.1 Y122.2 F1500
G1 X51.7 Y122.6 F1500
G1 X51.6 Y122.6 F1500
G1 X51.5 Y122.7 F1500
G1 X51.5 Y122.8 F1500
G1 X51.4 Y122.9 F1500
G1 X51.4 Y123.0 F1500
G1 X51.3 Y123.1 F1500
G1 X51.2 Y123.0 F1500
G1 X51.2 Y122.7 F1500
G1 X51.4 Y122.5 F1500
G1 X51.4 Y122.4 F1500
G1 X51.7 Y122.1 F1500
G1 X51.7 Y122.0 F1500
G1 X51.9 Y121.8 F1500
G1 X51.9 Y121.7 F1500
G1 X52.2 Y121.4 F1500
G1 X52.2 Y121.3 F1500
G1 X52.5 Y121.0 F1500
G1 X52.5 Y120.9 F1500
G1 X52.7 Y120.7 F1500
G1 X52.7 Y120.4 F1500
G1 X52.5 Y120.2 F1500
G1 X52.5 Y120.0 F1500
G1 X52.4 Y120.1 F1500
G1 X52.1 Y119.8 F1500
G1 X52.1 Y119.6 F1500
G1 X52.0 Y119.5 F1500
G1 X52.0 Y119.3 F1500
G1 X51.9 Y119.2 F1500
G1 X51.9 Y114.0 F1500
G1 X52.0 Y113.9 F1500
G1 X52.1 Y114.0 F1500
G1 X52.1 Y113.9 F1500
G1 X51.9 Y113.7 F1500
G1 X51.9 Y113.5 F1500
G1 X51.9 Y113.7 F1500
G1 X52.0 Y113.8 F1500
G1 X52.0 Y113.9 F1500
G1 X51.9 Y114.0 F1500
G1 X51.9 Y119.2 F1500
G1 X52.0 Y119.3 F1500
G1 X52.0 Y119.6 F1500
G1 X52.1 Y119.7 F1500
G1 X52.1 Y119.8 F1500
G1 X52.2 Y119.9 F1500
G1 X52.2 Y120.0 F1500
G1 X52.3 Y120.1 F1500
G1 X52.4 Y120.1 F1500
G1 X52.5 Y120.2 F1500
G1 X52.5 Y120.3 F1500
G1 X52.7 Y120.5 F1500
G1 X52.7 Y120.6 F1500
G1 X52.5 Y120.8 F1500
G1 X52.5 Y120.9 F1500
G1 X52.2 Y121.2 F1500
G1 X52.2 Y121.3 F1500
G1 X51.9 Y121.6 F1500
G1 X51.9 Y121.7 F1500
G1 X51.7 Y121.9 F1500
G1 X51.7 Y122.0 F1500
G1 X51.4 Y122.3 F1500
G1 X51.4 Y122.4 F1500
G1 X51.2 Y122.6 F1500
G1 X51.2 Y123.7 F1500
G1 X51.3 Y123.8 F1500
G1 X51.3 Y125.4 F1500
G1 X51.1 Y125.6 F1500
G1 X51.1 Y125.7 F1500
G1 X51.0 Y125.8 F1500
G1 X50.9 Y125.8 F1500
G1 X50.5 Y126.2 F1500
G1 X50.4 Y126.2 F1500
G1 X50.2 Y126.4 F1500
G1 X50.2 Y126.5 F1500
G1 X49.7 Y127.0 F1500
G1 X49.7 Y127.1 F1500
G1 X49.6 Y127.2 F1500
G1 X49.6 Y127.3 F1500
G1 X49.5 Y127.4 F1500
G1 X49.5 Y127.5 F1500
G1 X49.4 Y127.6 F1500
G1 X49.4 Y127.9 F1500
G1 X49.3 Y128.0 F1500
G1 X49.4 Y127.9 F1500
G1 X49.4 Y127.6 F1500
G1 X49.6 Y127.4 F1500
G1 X49.6 Y127.3 F1500
G1 X49.7 Y127.2 F1500
G1 X49.7 Y127.1 F1500
G1 X50.2 Y126.6 F1500
G1 X50.2 Y126.5 F1500
G1 X50.5 Y126.2 F1500
G1 X50.6 Y126.2 F1500
G1 X51.0 Y125.8 F1500
G1 X51.1 Y125.8 F1500
G1 X51.1 Y125.7 F1500
G1 X51.3 Y125.5 F1500
G1 X51.3 Y123.8 F1500
G1 X51.2 Y123.7 F1500
G1 X51.2 Y123.2 F1500
G1 X51.3 Y123.1 F1500
G1 X51.7 Y123.5 F1500
G1 X51.6 Y123.4 F1500
G1 X51.6 Y123.3 F1500
G1 X51.4 Y123.1 F1500
G1 X51.4 Y122.9 F1500
G1 X51.8 Y122.5 F1500
G1 X51.9 Y122.5 F1500
G1 X52.1 Y122.3 F1500
G1 X52.1 Y122.2 F1500
G1 X52.5 Y121.8 F1500
G1 X52.6 Y121.8 F1500
G1 X52.7 Y121.7 F1500
G1 X52.7 Y121.6 F1500
G1 X52.8 Y121.5 F1500
G1 X52.9 Y121.6 F1500
G1 X52.9 Y121.8 F1500
G1 X52.7 Y122.0 F1500
G1 X52.6 Y122.0 F1500
G1 X52.3 Y122.3 F1500
G1 X52.4 Y122.3 F1500
G1 X52.5 Y122.2 F1500
G1 X52.6 Y122.3 F1500
G1 X52.6 Y122.9 F1500
G1 X52.5 Y123.0 F1500
G1 X52.5 Y123.1 F1500
G1 X52.4 Y123.2 F1500
G1 X52.4 Y123.3 F1500
G1 X52.3 Y123.4 F1500
G1 X52.1 Y123.2 F1500
G1 X52.2 Y123.1 F1500
G1 X52.1 Y123.2 F1500
G1 X52.0 Y123.1 F1500
G1 X51.9 Y123.1 F1500
G1 X51.8 Y123.0 F1500
G1 X51.8 Y122.9 F1500
G1 X52.0 Y122.7 F1500
G1 X52.1 Y122.7 F1500
G1 X52.3 Y122.5 F1500
G1 X52.4 Y122.5 F1500
G1 X52.2 Y122.5 F1500
G1 X51.9 Y122.8 F1500
G1 X51.8 Y122.8 F1500
G1 X51.7 Y122.9 F1500
G1 X51.7 Y123.0 F1500
G1 X51.8 Y123.1 F1500
G1 X51.9 Y123.1 F1500
G1 X52.2 Y123.4 F1500
G1 X52.4 Y123.4 F1500
G1 X52.4 Y123.2 F1500
G1 X52.5 Y123.1 F1500
G1 X52.5 Y123.0 F1500
G1 X52.6 Y122.9 F1500
G1 X52.6 Y122.2 F1500
G1 X52.5 Y122.1 F1500
G1 X52.6 Y122.0 F1500
G1 X52.7 Y122.0 F1500
G1 X52.8 Y122.1 F1500
G1 X52.8 Y123.0 F1500
G1 X52.7 Y123.1 F1500
G1 X52.7 Y123.3 F1500
G1 X52.6 Y123.4 F1500
G1 X52.6 Y123.5 F1500
G1 X52.5 Y123.6 F1500
G1 X52.5 Y123.7 F1500
G1 X52.6 Y123.8 F1500
G1 X52.6 Y124.0 F1500
G1 X52.7 Y124.1 F1500
G1 X52.8 Y124.1 F1500
G1 X52.9 Y124.2 F1500
G1 X52.9 Y124.3 F1500
G1 X53.0 Y124.4 F1500
G1 X53.0 Y124.6 F1500
G1 X53.1 Y124.7 F1500
G1 X53.1 Y124.9 F1500
G1 X53.0 Y125.0 F1500
G1 X52.9 Y125.0 F1500
G1 X52.8 Y125.1 F1500
G1 X52.7 Y125.0 F1500
G1 X52.7 Y124.6 F1500
G1 X52.6 Y124.5 F1500
G1 X52.6 Y124.4 F1500
G1 X52.5 Y124.3 F1500
G1 X52.5 Y124.2 F1500
G1 X52.5 Y124.3 F1500
G1 X52.6 Y124.4 F1500
G1 X52.6 Y124.5 F1500
G1 X52.7 Y124.6 F1500
G1 X52.7 Y124.8 F1500
G1 X52.6 Y124.9 F1500
G1 X52.5 Y124.8 F1500
G1 X52.5 Y124.7 F1500
G1 X52.4 Y124.6 F1500
G1 X52.4 Y124.5 F1500
G1 X52.3 Y124.4 F1500
G1 X52.3 Y124.2 F1500
G1 X52.2 Y124.1 F1500
G1 X52.2 Y123.9 F1500
G1 X52.3 Y123.8 F1500
G1 X52.3 Y123.7 F1500
G1 X52.3 Y123.8 F1500
G1 X52.2 Y123.9 F1500
G1 X51.9 Y123.6 F1500
G1 X51.9 Y123.4 F1500
G1 X51.9 Y123.7 F1500
G1 X52.2 Y124.0 F1500
G1 X52.2 Y124.1 F1500
G1 X52.3 Y124.2 F1500
G1 X52.3 Y124.4 F1500
G1 X52.4 Y124.5 F1500
G1 X52.4 Y124.6 F1500
G1 X52.5 Y124.7 F1500
G1 X52.5 Y125.1 F1500
G1 X52.6 Y125.2 F1500
G1 X52.6 Y125.3 F1500
G1 X52.5 Y125.4 F1500
G1 X52.4 Y125.3 F1500
G1 X52.3 Y125.4 F1500
G1 X52.3 Y125.5 F1500
G1 X52.4 Y125.6 F1500
G1 X52.4 Y125.7 F1500
G1 X52.5 Y125.8 F1500
G1 X52.4 Y125.7 F1500
G1 X52.4 Y125.6 F1500
G1 X52.5 Y125.5 F1500
G1 X52.5 Y125.4 F1500
G1 X52.6 Y125.3 F1500
G1 X52.7 Y125.4 F1500
G1 X52.8 Y125.3 F1500
G1 X53.0 Y125.5 F1500
G1 X52.9 Y125.6 F1500
G1 X52.9 Y125.7 F1500
G1 X52.9 Y125.6 F1500
G1 X53.0 Y125.5 F1500
G1 X52.8 Y125.3 F1500
G1 X52.8 Y125.1 F1500
G1 X52.9 Y125.0 F1500
G1 X53.0 Y125.1 F1500
G1 X53.1 Y125.0 F1500
G1 X53.3 Y125.2 F1500
G1 X53.3 Y125.3 F1500
G1 X53.2 Y125.4 F1500
G1 X53.1 Y125.3 F1500
G1 X53.2 Y125.4 F1500
G1 X53.2 Y125.6 F1500
G1 X53.1 Y125.7 F1500
G1 X53.1 Y125.8 F1500
G1 X52.9 Y126.0 F1500
G1 X52.9 Y126.1 F1500
G1 X52.8 Y126.2 F1500
G1 X52.8 Y126.3 F1500
G1 X52.6 Y126.5 F1500
G1 X52.6 Y126.6 F1500
G1 X52.5 Y126.7 F1500
G1 X52.5 Y126.8 F1500
G1 X52.4 Y126.9 F1500
G1 X52.4 Y127.0 F1500
G1 X52.3 Y127.1 F1500
G1 X52.3 Y127.2 F1500
G1 X52.2 Y127.3 F1500
G1 X52.2 Y127.4 F1500
G1 X52.1 Y127.5 F1500
G1 X52.1 Y127.6 F1500
G1 X51.9 Y127.8 F1500
G1 X51.9 Y127.9 F1500
G1 X51.8 Y128.0 F1500
G1 X51.6 Y127.8 F1500
G1 X51.7 Y127.7 F1500
G1 X51.7 Y127.6 F1500
G1 X51.9 Y127.4 F1500
G1 X51.9 Y127.3 F1500
G1 X51.8 Y127.4 F1500
G1 X51.7 Y127.3 F1500
G1 X51.4 Y127.6 F1500
G1 X51.4 Y127.7 F1500
G1 X50.9 Y128.2 F1500
G1 X50.9 Y128.3 F1500
G1 X50.5 Y128.7 F1500
G1 X50.1 Y128.7 F1500
G1 X49.9 Y128.5 F1500
G1 X49.9 Y128.6 F1500
G1 X50.0 Y128.7 F1500
G1 X50.5 Y128.7 F1500
G1 X50.6 Y128.6 F1500
G1 X50.7 Y128.6 F1500
G1 X50.9 Y128.4 F1500
G1 X50.9 Y128.3 F1500
G1 X51.4 Y127.8 F1500
G1 X51.4 Y127.7 F1500
G1 X51.6 Y127.5 F1500
G1 X51.7 Y127.6 F1500
G1 X51.7 Y127.7 F1500
G1 X51.6 Y127.8 F1500
G1 X51.6 Y127.9 F1500
G1 X51.3 Y128.2 F1500
G1 X51.3 Y128.3 F1500
G1 X51.2 Y128.4 F1500
G1 X51.2 Y128.5 F1500
G1 X51.1 Y128.6 F1500
G1 X51.1 Y128.7 F1500
G1 X51.0 Y128.8 F1500
G1 X51.0 Y128.9 F1500
G1 X50.9 Y129.0 F1500
G1 X50.9 Y129.1 F1500
G1 X50.8 Y129.2 F1500
G1 X50.8 Y129.3 F1500
G1 X50.7 Y129.4 F1500
G1 X50.7 Y129.5 F1500
G1 X50.5 Y129.7 F1500
G1 X50.5 Y129.8 F1500
G1 X49.9 Y130.4 F1500
G1 X49.9 Y130.5 F1500
G1 X49.8 Y130.6 F1500
G1 X49.8 Y130.7 F1500
G1 X49.9 Y130.6 F1500
G1 X49.9 Y130.5 F1500
G1 X50.1 Y130.3 F1500
G1 X50.3 Y130.5 F1500
G1 X50.2 Y130.6 F1500
G1 X50.2 Y130.7 F1500
G1 X50.2 Y130.6 F1500
G1 X50.3 Y130.5 F1500
G1 X50.3 Y130.4 F1500
G1 X50.4 Y130.3 F1500
G1 X50.3 Y130.4 F1500
G1 X50.2 Y130.4 F1500
G1 X50.1 Y130.3 F1500
G1 X50.5 Y129.9 F1500
G1 X50.5 Y129.8 F1500
G1 X50.7 Y129.6 F1500
G1 X50.7 Y129.5 F1500
G1 X50.8 Y129.4 F1500
G1 X50.8 Y129.2 F1500
G1 X50.9 Y129.1 F1500
G1 X50.9 Y129.0 F1500
G1 X51.1 Y128.8 F1500
G1 X51.1 Y128.7 F1500
G1 X51.2 Y128.6 F1500
G1 X51.2 Y128.4 F1500
G1 X51.5 Y128.1 F1500
G1 X51.5 Y128.0 F1500
G1 X51.6 Y127.9 F1500
G1 X51.7 Y127.9 F1500
G1 X51.8 Y128.0 F1500
G1 X51.8 Y128.1 F1500
G1 X51.7 Y128.2 F1500
G1 X51.7 Y128.3 F1500
G1 X51.6 Y128.4 F1500
G1 X51.6 Y128.5 F1500
G1 X51.4 Y128.7 F1500
G1 X51.4 Y128.8 F1500
G1 X51.3 Y128.9 F1500
G1 X51.3 Y129.0 F1500
G1 X51.2 Y129.1 F1500
G1 X51.2 Y129.3 F1500
G1 X51.0 Y129.5 F1500
G1 X51.0 Y129.6 F1500
G1 X50.9 Y129.7 F1500
G1 X50.9 Y129.8 F1500
G1 X50.7 Y130.0 F1500
G1 X50.7 Y130.2 F1500
G1 X50.6 Y130.3 F1500
G1 X50.6 Y130.4 F1500
G1 X50.5 Y130.5 F1500
G1 X50.6 Y130.4 F1500
G1 X50.7 Y130.5 F1500
G1 X50.7 Y130.6 F1500
G1 X50.6 Y130.7 F1500
G1 X50.8 Y130.5 F1500
G1 X50.9 Y130.6 F1500
G1 X50.9 Y130.7 F1500
G1 X50.9 Y130.6 F1500
G1 X51.1 Y130.4 F1500
G1 X51.1 Y130.3 F1500
G1 X51.4 Y130.0 F1500
G1 X51.5 Y130.1 F1500
G1 X51.5 Y130.3 F1500
G1 X51.6 Y130.4 F1500
G1 X51.4 Y130.6 F1500
G1 X51.3 Y130.6 F1500
G1 X51.3 Y130.7 F1500
G1 X51.4 Y130.6 F1500
G1 X51.5 Y130.6 F1500
G1 X51.7 Y130.4 F1500
G1 X51.8 Y130.4 F1500
G1 X51.8 Y130.3 F1500
G1 X51.9 Y130.2 F1500
G1 X51.9 Y129.9 F1500
G1 X52.0 Y129.8 F1500
G1 X52.0 Y129.6 F1500
G1 X52.1 Y129.5 F1500
G1 X52.1 Y129.2 F1500
G1 X52.2 Y129.1 F1500
G1 X52.2 Y128.9 F1500
G1 X52.3 Y128.8 F1500
G1 X52.3 Y128.7 F1500
G1 X52.4 Y128.6 F1500
G1 X52.4 Y128.4 F1500
G1 X52.6 Y128.2 F1500
G1 X52.6 Y128.1 F1500
G1 X53.3 Y127.4 F1500
G1 X53.3 Y127.3 F1500
G1 X53.5 Y127.1 F1500
G1 X53.6 Y127.1 F1500
G1 X53.7 Y127.0 F1500
G1 X53.8 Y127.0 F1500
G1 X53.9 Y126.9 F1500
G1 X54.0 Y126.9 F1500
G1 X54.0 Y126.8 F1500
G1 X54.1 Y126.7 F1500
G1 X54.3 Y126.7 F1500
G1 X54.4 Y126.6 F1500
G1 X54.7 Y126.6 F1500
G1 X54.8 Y126.7 F1500
G1 X55.1 Y126.7 F1500
G1 X55.2 Y126.8 F1500
G1 X55.1 Y126.9 F1500
G1 X55.1 Y127.0 F1500
G1 X55.0 Y127.1 F1500
G1 X54.8 Y126.9 F1500
G1 X54.7 Y127.0 F1500
G1 X54.4 Y127.0 F1500
G1 X54.3 Y127.1 F1500
G1 X54.2 Y127.1 F1500
G1 X54.1 Y127.2 F1500
G1 X54.0 Y127.2 F1500
G1 X53.5 Y127.7 F1500
G1 X53.5 Y127.8 F1500
G1 X53.3 Y128.0 F1500
G1 X53.3 Y128.1 F1500
G1 X53.1 Y128.3 F1500
G1 X53.1 Y128.4 F1500
G1 X53.0 Y128.5 F1500
G1 X53.0 Y128.6 F1500
G1 X52.9 Y128.7 F1500
G1 X52.9 Y129.0 F1500
G1 X52.8 Y129.1 F1500
G1 X52.8 Y129.2 F1500
G1 X52.7 Y129.3 F1500
G1 X52.7 Y129.4 F1500
G1 X52.6 Y129.5 F1500
G1 X52.6 Y129.7 F1500
G1 X52.5 Y129.8 F1500
G1 X52.5 Y129.9 F1500
G1 X52.4 Y130.0 F1500
G1 X52.4 Y130.2 F1500
G1 X52.3 Y130.3 F1500
G1 X52.3 Y130.5 F1500
G1 X52.2 Y130.6 F1500
G1 X52.2 Y130.7 F1500
G1 X52.2 Y130.6 F1500
G1 X52.3 Y130.5 F1500
G1 X52.3 Y130.3 F1500
G1 X52.4 Y130.2 F1500
G1 X52.4 Y130.0 F1500
G1 X52.6 Y129.8 F1500
G1 X52.6 Y129.6 F1500
G1 X52.7 Y129.5 F1500
G1 X52.7 Y129.3 F1500
G1 X52.8 Y129.2 F1500
G1 X52.8 Y129.1 F1500
G1 X52.9 Y129.0 F1500
G1 X52.9 Y128.8 F1500
G1 X53.0 Y128.7 F1500
G1 X53.0 Y128.6 F1500
G1 X53.1 Y128.5 F1500
G1 X53.1 Y128.4 F1500
G1 X53.3 Y128.2 F1500
G1 X53.3 Y128.1 F1500
G1 X53.4 Y128.0 F1500
G1 X53.4 Y127.9 F1500
G1 X53.7 Y127.6 F1500
G1 X53.9 Y127.8 F1500
G1 X53.9 Y128.0 F1500
G1 X54.0 Y128.0 F1500
G1 X54.1 Y128.1 F1500
G1 X54.2 Y128.0 F1500
G1 X54.3 Y128.1 F1500
G1 X54.3 Y128.2 F1500
G1 X54.0 Y128.5 F1500
G1 X53.9 Y128.5 F1500
G1 X53.8 Y128.4 F1500
G1 X53.9 Y128.3 F1500
G1 X53.8 Y128.4 F1500
G1 X53.8 Y128.5 F1500
G1 X53.7 Y128.6 F1500
G1 X53.6 Y128.6 F1500
G1 X53.3 Y128.9 F1500
G1 X53.3 Y129.0 F1500
G1 X53.2 Y129.1 F1500
G1 X53.2 Y129.2 F1500
G1 X53.1 Y129.3 F1500
G1 X53.2 Y129.4 F1500
G1 X53.1 Y129.5 F1500
G1 X53.1 Y129.6 F1500
G1 X53.0 Y129.7 F1500
G1 X53.0 Y130.0 F1500
G1 X52.9 Y130.1 F1500
G1 X52.9 Y130.4 F1500
G1 X52.8 Y130.5 F1500
G1 X52.8 Y130.7 F1500
G1 X52.8 Y130.5 F1500
G1 X52.9 Y130.4 F1500
G1 X52.9 Y130.1 F1500
G1 X53.0 Y130.0 F1500
G1 X53.0 Y129.7 F1500
G1 X53.1 Y129.6 F1500
G1 X53.1 Y129.5 F1500
G1 X53.2 Y129.4 F1500
G1 X53.1 Y129.3 F1500
G1 X53.3 Y129.1 F1500
G1 X53.3 Y129.0 F1500
G1 X53.4 Y128.9 F1500
G1 X53.4 Y128.8 F1500
G1 X53.6 Y128.6 F1500
G1 X53.7 Y128.7 F1500
G1 X53.7 Y128.8 F1500
G1 X53.6 Y128.9 F1500
G1 X53.6 Y129.0 F1500
G1 X53.5 Y129.1 F1500
G1 X53.5 Y129.3 F1500
G1 X53.4 Y129.4 F1500
G1 X53.4 Y129.7 F1500
G1 X53.3 Y129.8 F1500
G1 X53.3 Y130.4 F1500
G1 X53.4 Y130.5 F1500
G1 X53.4 Y130.7 F1500
G1 X53.4 Y130.5 F1500
G1 X53.3 Y130.4 F1500
G1 X53.3 Y129.8 F1500
G1 X53.4 Y129.7 F1500
G1 X53.4 Y129.4 F1500
G1 X53.5 Y129.3 F1500
G1 X53.5 Y129.2 F1500
G1 X53.6 Y129.1 F1500
G1 X53.6 Y129.0 F1500
G1 X54.0 Y128.6 F1500
G1 X54.1 Y128.7 F1500
G1 X54.0 Y128.6 F1500
G1 X54.1 Y128.5 F1500
G1 X54.1 Y128.4 F1500
G1 X54.4 Y128.1 F1500
G1 X54.4 Y128.0 F1500
G1 X54.5 Y127.9 F1500
G1 X54.6 Y127.9 F1500
G1 X54.7 Y127.8 F1500
G1 X54.8 Y127.9 F1500
G1 X54.9 Y127.9 F1500
G1 X54.8 Y127.9 F1500
G1 X54.7 Y127.8 F1500
G1 X55.2 Y127.3 F1500
G1 X55.3 Y127.3 F1500
G1 X55.4 Y127.2 F1500
G1 X55.5 Y127.2 F1500
G1 X55.7 Y127.0 F1500
G1 X55.9 Y127.0 F1500
G1 X56.0 Y126.9 F1500
G1 X56.1 Y126.9 F1500
G1 X56.6 Y126.4 F1500
G1 X56.7 Y126.4 F1500
G1 X56.8 Y126.3 F1500
G1 X57.5 Y126.3 F1500
G1 X57.7 Y126.1 F1500
G1 X57.9 Y126.1 F1500
G1 X58.0 Y126.0 F1500
G1 X58.1 Y126.0 F1500
G1 X58.2 Y125.9 F1500
G1 X58.3 Y125.9 F1500
G1 X58.4 Y125.8 F1500
G1 X58.6 Y125.8 F1500
G1 X58.7 Y125.7 F1500
G1 X58.8 Y125.7 F1500
G1 X58.9 Y125.6 F1500
G1 X59.0 Y125.6 F1500
G1 X59.1 Y125.5 F1500
G1 X59.4 Y125.5 F1500
G1 X59.7 Y125.2 F1500
G1 X59.7 Y125.1 F1500
G1 X60.1 Y124.7 F1500
G1 X60.1 Y124.6 F1500
G1 X60.8 Y123.9 F1500
G1 X60.9 Y123.9 F1500
G1 X61.1 Y123.7 F1500
G1 X61.3 Y123.7 F1500
G1 X61.4 Y123.6 F1500
G1 X61.6 Y123.6 F1500
G1 X61.7 Y123.5 F1500
G1 X61.9 Y123.5 F1500
G1 X62.0 Y123.6 F1500
G1 X62.0 Y123.8 F1500
G1 X61.9 Y123.9 F1500
G1 X61.8 Y123.9 F1500
G1 X61.8 Y124.0 F1500
G1 X61.7 Y124.1 F1500
G1 X61.7 Y124.2 F1500
G1 X61.6 Y124.3 F1500
G1 X61.6 Y124.4 F1500
G1 X61.0 Y125.0 F1500
G1 X61.0 Y125.1 F1500
G1 X60.7 Y125.4 F1500
G1 X60.7 Y125.5 F1500
G1 X60.6 Y125.6 F1500
G1 X60.6 Y125.7 F1500
G1 X60.5 Y125.8 F1500
G1 X60.5 Y125.9 F1500
G1 X60.4 Y126.0 F1500
G1 X60.4 Y126.1 F1500
G1 X60.3 Y126.2 F1500
G1 X60.3 Y126.3 F1500
G1 X60.2 Y126.4 F1500
G1 X60.2 Y126.6 F1500
G1 X60.1 Y126.7 F1500
G1 X60.1 Y126.8 F1500
G1 X60.0 Y126.9 F1500
G1 X60.0 Y127.0 F1500
G1 X59.9 Y127.1 F1500
G1 X59.9 Y127.2 F1500
G1 X59.8 Y127.3 F1500
G1 X59.8 Y127.6 F1500
G1 X59.7 Y127.7 F1500
G1 X59.7 Y128.0 F1500
G1 X59.5 Y128.2 F1500
G1 X59.6 Y128.2 F1500
G1 X59.6 Y128.1 F1500
G1 X59.7 Y128.0 F1500
G1 X59.7 Y127.7 F1500
G1 X59.8 Y127.6 F1500
G1 X59.8 Y127.4 F1500
G1 X59.9 Y127.3 F1500
G1 X59.9 Y127.2 F1500
G1 X60.0 Y127.1 F1500
G1 X60.0 Y126.9 F1500
G1 X60.1 Y126.8 F1500
G1 X60.1 Y126.7 F1500
G1 X60.2 Y126.6 F1500
G1 X60.2 Y126.5 F1500
G1 X60.3 Y126.4 F1500
G1 X60.3 Y126.3 F1500
G1 X60.4 Y126.2 F1500
G1 X60.4 Y126.1 F1500
G1 X60.5 Y126.0 F1500
G1 X60.5 Y125.9 F1500
G1 X60.6 Y125.8 F1500
G1 X60.6 Y125.7 F1500
G1 X60.7 Y125.6 F1500
G1 X60.7 Y125.5 F1500
G1 X61.0 Y125.2 F1500
G1 X61.0 Y125.1 F1500
G1 X61.6 Y124.5 F1500
G1 X61.6 Y124.3 F1500
G1 X61.7 Y124.2 F1500
G1 X61.7 Y124.1 F1500
G1 X62.0 Y123.8 F1500
G1 X62.1 Y123.8 F1500
G1 X62.0 Y123.7 F1500
G1 X62.0 Y123.6 F1500
G1 X61.9 Y123.5 F1500
G1 X62.0 Y123.4 F1500
G1 X62.1 Y123.4 F1500
G1 X62.2 Y123.5 F1500
G1 X62.6 Y123.1 F1500
G1 X62.7 Y123.2 F1500
G1 X62.7 Y123.3 F1500
G1 X62.7 Y123.2 F1500
G1 X62.6 Y123.1 F1500
G1 X62.4 Y123.3 F1500
G1 X62.3 Y123.3 F1500
G1 X62.3 Y123.4 F1500
G1 X62.2 Y123.5 F1500
G1 X62.1 Y123.4 F1500
G1 X62.0 Y123.4 F1500
G1 X61.9 Y123.5 F1500
G1 X61.7 Y123.5 F1500
G1 X61.6 Y123.6 F1500
G1 X61.4 Y123.6 F1500
G1 X61.3 Y123.7 F1500
G1 X61.1 Y123.7 F1500
G1 X61.0 Y123.8 F1500
G1 X60.9 Y123.8 F1500
G1 X60.8 Y123.9 F1500
G1 X60.7 Y123.9 F1500
G1 X60.1 Y124.5 F1500
G1 X60.1 Y124.6 F1500
G1 X59.7 Y125.0 F1500
G1 X59.7 Y125.1 F1500
G1 X59.3 Y125.5 F1500
G1 X59.1 Y125.5 F1500
G1 X59.0 Y125.6 F1500
G1 X58.9 Y125.6 F1500
G1 X58.8 Y125.7 F1500
G1 X58.7 Y125.7 F1500
G1 X58.6 Y125.8 F1500
G1 X58.4 Y125.8 F1500
G1 X58.3 Y125.9 F1500
G1 X58.1 Y125.9 F1500
G1 X58.0 Y126.0 F1500
G1 X57.9 Y126.0 F1500
G1 X57.8 Y126.1 F1500
G1 X57.6 Y126.1 F1500
G1 X57.4 Y126.3 F1500
G1 X56.7 Y126.3 F1500
G1 X56.6 Y126.4 F1500
G1 X56.5 Y126.4 F1500
G1 X55.9 Y127.0 F1500
G1 X55.7 Y127.0 F1500
G1 X55.6 Y126.9 F1500
G1 X55.6 Y127.0 F1500
G1 X55.5 Y127.1 F1500
G1 X55.4 Y127.0 F1500
G1 X55.3 Y127.0 F1500
G1 X55.2 Y126.9 F1500
G1 X55.3 Y126.8 F1500
G1 X55.4 Y126.8 F1500
G1 X55.7 Y126.5 F1500
G1 X56.0 Y126.5 F1500
G1 X56.3 Y126.2 F1500
G1 X56.4 Y126.2 F1500
G1 X56.3 Y126.1 F1500
G1 X56.3 Y126.0 F1500
G1 X56.1 Y125.8 F1500
G1 X56.2 Y125.7 F1500
G1 X56.1 Y125.7 F1500
G1 X56.1 Y126.0 F1500
G1 X56.0 Y126.1 F1500
G1 X55.9 Y126.0 F1500
G1 X55.8 Y126.0 F1500
G1 X55.9 Y126.0 F1500
G1 X56.0 Y126.1 F1500
G1 X55.8 Y126.3 F1500
G1 X55.7 Y126.3 F1500
G1 X55.9 Y126.3 F1500
G1 X56.0 Y126.2 F1500
G1 X56.0 Y126.1 F1500
G1 X56.1 Y126.0 F1500
G1 X56.2 Y126.0 F1500
G1 X56.3 Y126.1 F1500
G1 X56.2 Y126.2 F1500
G1 X56.2 Y126.3 F1500
G1 X56.0 Y126.5 F1500
G1 X55.7 Y126.5 F1500
G1 X55.4 Y126.8 F1500
G1 X55.2 Y126.8 F1500
G1 X55.1 Y126.7 F1500
G1 X54.8 Y126.7 F1500
G1 X54.7 Y126.6 F1500
G1 X54.5 Y126.6 F1500
G1 X54.4 Y126.5 F1500
G1 X54.5 Y126.4 F1500
G1 X54.5 Y126.3 F1500
G1 X54.6 Y126.2 F1500
G1 X54.7 Y126.3 F1500
G1 X54.8 Y126.2 F1500
G1 X54.9 Y126.2 F1500
G1 X55.0 Y126.3 F1500
G1 X55.0 Y126.5 F1500
G1 X55.1 Y126.5 F1500
G1 X55.2 Y126.4 F1500
G1 X55.1 Y126.5 F1500
G1 X55.0 Y126.4 F1500
G1 X55.0 Y126.3 F1500
G1 X54.9 Y126.2 F1500
G1 X54.9 Y126.1 F1500
G1 X55.0 Y126.0 F1500
G1 X55.1 Y126.0 F1500
G1 X55.2 Y125.9 F1500
G1 X55.1 Y126.0 F1500
G1 X55.0 Y126.0 F1500
G1 X54.7 Y126.3 F1500
G1 X54.6 Y126.2 F1500
G1 X54.1 Y126.2 F1500
G1 X53.9 Y126.0 F1500
G1 X53.8 Y126.0 F1500
G1 X53.7 Y125.9 F1500
G1 X53.9 Y125.7 F1500
G1 X54.0 Y125.8 F1500
G1 X54.1 Y125.8 F1500
G1 X54.2 Y125.9 F1500
G1 X54.4 Y125.9 F1500
G1 X54.5 Y126.0 F1500
G1 X54.7 Y126.0 F1500
G1 X54.6 Y126.0 F1500
G1 X54.5 Y125.9 F1500
G1 X54.3 Y125.9 F1500
G1 X54.2 Y125.8 F1500
G1 X54.1 Y125.8 F1500
G1 X53.9 Y125.6 F1500
G1 X53.8 Y125.6 F1500
G1 X53.7 Y125.5 F1500
G1 X53.8 Y125.4 F1500
G1 X54.0 Y125.4 F1500
G1 X53.9 Y125.4 F1500
G1 X53.8 Y125.3 F1500
G1 X54.0 Y125.1 F1500
G1 X54.0 Y125.0 F1500
G1 X54.1 Y124.9 F1500
G1 X54.1 Y124.7 F1500
G1 X54.3 Y124.5 F1500
G1 X54.3 Y124.4 F1500
G1 X54.4 Y124.3 F1500
G1 X54.4 Y124.2 F1500
G1 X54.5 Y124.1 F1500
G1 X54.5 Y124.0 F1500
G1 X54.6 Y123.9 F1500
G1 X54.6 Y123.8 F1500
G1 X54.6 Y123.9 F1500
G1 X54.5 Y124.0 F1500
G1 X54.5 Y124.1 F1500
G1 X54.4 Y124.2 F1500
G1 X54.4 Y124.3 F1500
G1 X54.3 Y124.4 F1500
G1 X54.3 Y124.5 F1500
G1 X54.1 Y124.7 F1500
G1 X54.0 Y124.6 F1500
G1 X54.0 Y124.4 F1500
G1 X54.2 Y124.2 F1500
G1 X54.2 Y124.1 F1500
G1 X54.3 Y124.0 F1500
G1 X54.3 Y123.9 F1500
G1 X54.4 Y123.8 F1500
G1 X54.4 Y123.7 F1500
G1 X54.5 Y123.6 F1500
G1 X54.5 Y123.5 F1500
G1 X54.6 Y123.4 F1500
G1 X54.6 Y123.3 F1500
G1 X54.8 Y123.1 F1500
G1 X54.8 Y123.0 F1500
G1 X54.9 Y122.9 F1500
G1 X55.0 Y123.0 F1500
G1 X55.0 Y123.2 F1500
G1 X54.8 Y123.4 F1500
G1 X54.8 Y123.5 F1500
G1 X54.7 Y123.6 F1500
G1 X54.8 Y123.5 F1500
G1 X54.8 Y123.4 F1500
G1 X55.0 Y123.2 F1500
G1 X55.0 Y123.0 F1500
G1 X55.1 Y122.9 F1500
G1 X55.0 Y123.0 F1500
G1 X54.9 Y122.9 F1500
G1 X54.9 Y122.8 F1500
G1 X55.1 Y122.6 F1500
G1 X55.1 Y122.4 F1500
G1 X55.3 Y122.2 F1500
G1 X55.3 Y122.1 F1500
G1 X55.4 Y122.0 F1500
G1 X55.5 Y122.1 F1500
G1 X55.5 Y122.2 F1500
G1 X55.5 Y122.1 F1500
G1 X55.4 Y122.0 F1500
G1 X55.4 Y121.9 F1500
G1 X55.5 Y121.8 F1500
G1 X55.5 Y121.7 F1500
G1 X55.6 Y121.6 F1500
G1 X55.6 Y121.5 F1500
G1 X55.7 Y121.4 F1500
G1 X55.7 Y121.3 F1500
G1 X55.8 Y121.2 F1500
G1 X55.8 Y121.1 F1500
G1 X55.9 Y121.0 F1500
G1 X55.9 Y120.9 F1500
G1 X56.1 Y120.7 F1500
G1 X56.2 Y120.8 F1500
G1 X56.2 Y120.9 F1500
G1 X56.1 Y121.0 F1500
G1 X56.1 Y121.1 F1500
G1 X56.0 Y121.2 F1500
G1 X56.0 Y121.3 F1500
G1 X55.9 Y121.4 F1500
G1 X55.9 Y121.5 F1500
G1 X55.8 Y121.6 F1500
G1 X55.8 Y121.7 F1500
G1 X55.8 Y121.6 F1500
G1 X55.9 Y121.5 F1500
G1 X55.9 Y121.4 F1500
G1 X56.0 Y121.3 F1500
G1 X56.0 Y121.2 F1500
G1 X56.1 Y121.1 F1500
G1 X56.1 Y121.0 F1500
G1 X56.2 Y120.9 F1500
G1 X56.3 Y121.0 F1500
G1 X56.3 Y121.2 F1500
G1 X56.2 Y121.3 F1500
G1 X56.2 Y121.4 F1500
G1 X56.2 Y121.3 F1500
G1 X56.3 Y121.2 F1500
G1 X56.3 Y121.1 F1500
G1 X56.4 Y121.0 F1500
G1 X56.4 Y120.9 F1500
G1 X56.5 Y120.8 F1500
G1 X56.3 Y121.0 F1500
G1 X56.2 Y120.9 F1500
G1 X56.2 Y120.8 F1500
G1 X56.4 Y120.6 F1500
G1 X56.4 Y120.5 F1500
G1 X56.5 Y120.4 F1500
G1 X56.6 Y120.5 F1500
G1 X56.6 Y120.6 F1500
G1 X56.7 Y120.5 F1500
G1 X56.7 Y120.4 F1500
G1 X56.6 Y120.5 F1500
G1 X56.5 Y120.4 F1500
G1 X56.5 Y120.3 F1500
G1 X56.6 Y120.2 F1500
G1 X56.6 Y120.1 F1500
G1 X56.8 Y119.9 F1500
G1 X56.8 Y119.8 F1500
G1 X56.9 Y119.7 F1500
G1 X56.9 Y119.6 F1500
G1 X57.0 Y119.5 F1500
G1 X57.0 Y119.4 F1500
G1 X57.1 Y119.3 F1500
G1 X57.1 Y119.2 F1500
G1 X57.2 Y119.1 F1500
G1 X57.2 Y119.0 F1500
G1 X57.3 Y118.9 F1500
G1 X57.3 Y118.8 F1500
G1 X57.5 Y118.6 F1500
G1 X57.5 Y118.4 F1500
G1 X57.6 Y118.3 F1500
G1 X57.6 Y118.1 F1500
G1 X57.5 Y118.0 F1500
G1 X57.7 Y117.8 F1500
G1 X57.8 Y117.8 F1500
G1 X57.9 Y117.7 F1500
G1 X58.0 Y117.7 F1500
G1 X58.2 Y117.5 F1500
G1 X58.3 Y117.5 F1500
G1 X58.5 Y117.3 F1500
G1 X58.6 Y117.3 F1500
G1 X58.7 Y117.2 F1500
G1 X58.8 Y117.2 F1500
G1 X58.9 Y117.1 F1500
G1 X59.0 Y117.1 F1500
G1 X59.2 Y116.9 F1500
G1 X59.4 Y116.9 F1500
G1 X60.0 Y116.3 F1500
G1 X60.1 Y116.3 F1500
G1 X61.2 Y115.2 F1500
G1 X61.2 Y115.1 F1500
G1 X61.5 Y114.8 F1500
G1 X61.5 Y114.7 F1500
G1 X61.8 Y114.4 F1500
G1 X61.8 Y113.9 F1500
G1 X61.9 Y113.8 F1500
G1 X61.8 Y113.7 F1500
G1 X61.8 Y113.6 F1500
G1 X61.7 Y113.5 F1500
G1 X61.8 Y113.4 F1500
G0 Z5 F3000
G0 X68.6 Y113.0 F6000
G1 Z0 F1000
G1 X68.7 Y113.0 F1500
G1 X68.8 Y113.1 F1500
G1 X68.7 Y113.2 F1500
G1 X68.7 Y113.3 F1500
G1 X68.6 Y113.4 F1500
G1 X68.4 Y113.2 F1500
G0 Z5 F3000
G0 X53.1 Y113.1 F6000
G1 Z0 F1000
G1 X53.2 Y113.0 F1500
G1 X53.3 Y113.0 F1500
G1 X53.4 Y113.1 F1500
G1 X53.4 Y113.2 F1500
G1 X53.3 Y113.3 F1500
G1 X53.2 Y113.3 F1500
G1 X53.1 Y113.2 F1500
G0 Z5 F3000
G0 X52.2 Y113.0 F6000
G1 Z0 F1000
G1 X52.3 Y113.1 F1500
G1 X52.3 Y113.2 F1500
G1 X52.2 Y113.3 F1500
G1 X52.1 Y113.3 F1500
G1 X52.0 Y113.2 F1500
G0 Z5 F3000
G0 X55.2 Y112.9 F6000
G1 Z0 F1000
G1 X55.2 Y113.1 F1500
G1 X55.3 Y113.2 F1500
G1 X55.3 Y113.5 F1500
G1 X55.4 Y113.6 F1500
G1 X55.4 Y113.8 F1500
G1 X55.5 Y113.9 F1500
G1 X55.5 Y114.1 F1500
G1 X55.6 Y114.2 F1500
G1 X55.6 Y114.4 F1500
G1 X55.7 Y114.5 F1500
G1 X55.7 Y114.7 F1500
G1 X55.8 Y114.8 F1500
G1 X55.8 Y115.0 F1500
G1 X55.7 Y115.1 F1500
G1 X55.7 Y115.3 F1500
G1 X55.8 Y115.4 F1500
G1 X55.8 Y115.5 F1500
G1 X55.9 Y115.6 F1500
G1 X55.9 Y115.7 F1500
G1 X55.6 Y116.0 F1500
G1 X55.5 Y116.0 F1500
G1 X55.3 Y116.2 F1500
G1 X55.3 Y116.6 F1500
G1 X55.1 Y116.8 F1500
G1 X55.0 Y116.8 F1500
G1 X54.9 Y116.9 F1500
G1 X54.9 Y117.1 F1500
G1 X54.8 Y117.2 F1500
G1 X54.8 Y117.4 F1500
G1 X54.7 Y117.5 F1500
G1 X54.7 Y117.6 F1500
G1 X54.5 Y117.8 F1500
G1 X54.5 Y118.0 F1500
G1 X54.3 Y118.2 F1500
G1 X54.3 Y118.4 F1500
G1 X54.2 Y118.5 F1500
G1 X54.2 Y119.1 F1500
G1 X54.1 Y119.2 F1500
G1 X54.1 Y119.6 F1500
G1 X54.0 Y119.7 F1500
G1 X54.0 Y119.8 F1500
G1 X53.7 Y120.1 F1500
G1 X53.7 Y120.4 F1500
G1 X53.6 Y120.5 F1500
G1 X53.6 Y120.6 F1500
G1 X53.5 Y120.7 F1500
G1 X53.4 Y120.6 F1500
G1 X53.4 Y120.5 F1500
G1 X53.3 Y120.4 F1500
G1 X53.4 Y120.3 F1500
G1 X53.4 Y120.1 F1500
G1 X53.5 Y120.0 F1500
G1 X53.5 Y119.7 F1500
G1 X53.5 Y120.0 F1500
G1 X53.4 Y120.1 F1500
G1 X53.4 Y120.3 F1500
G1 X53.3 Y120.4 F1500
G1 X53.2 Y120.3 F1500
G1 X53.2 Y119.7 F1500
G1 X53.0 Y119.5 F1500
G1 X53.0 Y119.4 F1500
G1 X53.1 Y119.3 F1500
G1 X53.2 Y119.4 F1500
G1 X53.3 Y119.4 F1500
G1 X53.4 Y119.5 F1500
G1 X53.4 Y119.4 F1500
G1 X53.3 Y119.4 F1500
G1 X53.2 Y119.3 F1500
G1 X53.3 Y119.2 F1500
G1 X53.2 Y119.1 F1500
G1 X53.2 Y119.0 F1500
G1 X53.3 Y118.9 F1500
G1 X53.3 Y118.8 F1500
G1 X53.4 Y118.7 F1500
G1 X53.6 Y118.7 F1500
G1 X53.7 Y118.8 F1500
G1 X53.7 Y119.2 F1500
G1 X53.6 Y119.3 F1500
G1 X53.6 Y119.5 F1500
G1 X53.6 Y119.3 F1500
G1 X53.7 Y119.2 F1500
G1 X53.7 Y118.8 F1500
G1 X53.8 Y118.7 F1500
G1 X53.8 Y118.6 F1500
G1 X53.7 Y118.5 F1500
G1 X53.6 Y118.5 F1500
G1 X53.6 Y118.6 F1500
G1 X53.5 Y118.7 F1500
G1 X53.3 Y118.7 F1500
G1 X53.3 Y118.9 F1500
G1 X53.1 Y119.1 F1500
G1 X53.0 Y119.1 F1500
G1 X52.8 Y119.3 F1500
G1 X52.8 Y119.4 F1500
G1 X52.5 Y119.7 F1500
G1 X52.4 Y119.6 F1500
G1 X52.4 Y119.4 F1500
G1 X52.5 Y119.3 F1500
G1 X52.5 Y119.0 F1500
G1 X52.4 Y118.9 F1500
G1 X52.4 Y118.7 F1500
G1 X52.5 Y118.6 F1500
G1 X52.6 Y118.7 F1500
G1 X52.6 Y118.8 F1500
G1 X52.7 Y118.8 F1500
G1 X52.8 Y118.9 F1500
G1 X52.9 Y118.9 F1500
G1 X53.0 Y118.8 F1500
G1 X53.1 Y118.8 F1500
G1 X53.0 Y118.7 F1500
G1 X53.0 Y118.6 F1500
G1 X52.8 Y118.4 F1500
G1 X52.8 Y118.0 F1500
G1 X52.9 Y117.9 F1500
G1 X52.6 Y117.6 F1500
G1 X52.6 Y117.5 F1500
G1 X52.4 Y117.5 F1500
G1 X52.4 Y117.7 F1500
G1 X52.4 Y117.6 F1500
G1 X52.5 Y117.5 F1500
G1 X52.9 Y117.9 F1500
G1 X52.8 Y118.0 F1500
G1 X52.5 Y118.0 F1500
G1 X52.4 Y118.1 F1500
G1 X52.4 Y118.2 F1500
G1 X52.3 Y118.3 F1500
G1 X52.3 Y118.5 F1500
G1 X52.2 Y118.6 F1500
G1 X52.3 Y118.5 F1500
G1 X52.4 Y118.6 F1500
G1 X52.4 Y118.7 F1500
G1 X52.3 Y118.8 F1500
G1 X52.2 Y118.8 F1500
G1 X52.3 Y118.8 F1500
G1 X52.5 Y119.0 F1500
G1 X52.5 Y119.2 F1500
G1 X52.4 Y119.3 F1500
G1 X52.3 Y119.2 F1500
G1 X52.3 Y119.1 F1500
G1 X52.3 Y119.2 F1500
G1 X52.4 Y119.3 F1500
G1 X52.4 Y119.7 F1500
G1 X52.5 Y119.7 F1500
G1 X52.7 Y119.9 F1500
G1 X53.0 Y119.9 F1500
G1 X52.8 Y119.9 F1500
G1 X52.7 Y119.8 F1500
G1 X52.6 Y119.8 F1500
G1 X52.5 Y119.7 F1500
G1 X52.8 Y119.4 F1500
G1 X53.2 Y119.8 F1500
G1 X53.2 Y120.4 F1500
G1 X53.3 Y120.4 F1500
G1 X53.4 Y120.5 F1500
G1 X53.4 Y120.9 F1500
G1 X53.4 Y120.8 F1500
G1 X53.5 Y120.7 F1500
G1 X53.6 Y120.8 F1500
G1 X53.6 Y121.0 F1500
G1 X53.6 Y120.7 F1500
G1 X53.7 Y120.6 F1500
G1 X53.7 Y120.2 F1500
G1 X54.0 Y119.9 F1500
G1 X54.0 Y119.7 F1500
G1 X54.1 Y119.6 F1500
G1 X54.1 Y119.2 F1500
G1 X54.2 Y119.1 F1500
G1 X54.2 Y118.5 F1500
G1 X54.3 Y118.4 F1500
G1 X54.3 Y118.3 F1500
G1 X54.5 Y118.1 F1500
G1 X54.5 Y117.9 F1500
G1 X54.7 Y117.7 F1500
G1 X54.7 Y117.6 F1500
G1 X54.8 Y117.5 F1500
G1 X54.8 Y117.2 F1500
G1 X54.9 Y117.1 F1500
G1 X54.9 Y117.0 F1500
G1 X55.1 Y116.8 F1500
G1 X55.2 Y116.8 F1500
G1 X55.3 Y116.7 F1500
G1 X55.3 Y116.3 F1500
G1 X55.6 Y116.0 F1500
G1 X55.7 Y116.0 F1500
G1 X55.9 Y115.8 F1500
G1 X55.9 Y115.6 F1500
G1 X55.8 Y115.5 F1500
G1 X55.8 Y115.4 F1500
G1 X55.7 Y115.3 F1500
G1 X55.7 Y115.2 F1500
G1 X55.8 Y115.1 F1500
G1 X55.8 Y114.8 F1500
G1 X55.7 Y114.7 F1500
G1 X55.7 Y114.5 F1500
G1 X55.6 Y114.4 F1500
G1 X55.6 Y114.2 F1500
G1 X55.5 Y114.1 F1500
G1 X55.5 Y113.9 F1500
G1 X55.4 Y113.8 F1500
G1 X55.4 Y113.6 F1500
G1 X55.3 Y113.5 F1500
G1 X55.3 Y113.2 F1500
G1 X55.2 Y113.1 F1500
G0 Z5 F3000
G0 X68.5 Y112.8 F6000
G1 Z0 F1000
G1 X68.6 Y112.7 F1500
G1 X68.8 Y112.9 F1500
G1 X68.7 Y113.0 F1500
G1 X68.6 Y113.0 F1500
G1 X68.5 Y112.9 F1500
G0 Z5 F3000
G0 X52.7 Y112.8 F6000
G1 Z0 F1000
G1 X52.6 Y112.9 F1500
G0 Z5 F3000
G0 X66.6 Y112.7 F6000
G1 Z0 F1000
G1 X66.7 Y112.7 F1500
G1 X66.8 Y112.8 F1500
G1 X66.6 Y113.0 F1500
G1 X66.6 Y113.6 F1500
G1 X66.7 Y113.6 F1500
G1 X66.8 Y113.5 F1500
G1 X67.0 Y113.7 F1500
G1 X67.1 Y113.7 F1500
G1 X67.2 Y113.8 F1500
G1 X67.8 Y113.8 F1500
G1 X67.9 Y113.7 F1500
G1 X68.2 Y113.7 F1500
G1 X68.2 Y113.5 F1500
G1 X67.8 Y113.5 F1500
G1 X67.7 Y113.6 F1500
G1 X67.6 Y113.6 F1500
G1 X67.8 Y113.6 F1500
G1 X67.9 Y113.7 F1500
G1 X67.8 Y113.8 F1500
G1 X67.5 Y113.8 F1500
G1 X67.4 Y113.7 F1500
G1 X67.4 Y113.5 F1500
G1 X67.5 Y113.4 F1500
G1 X67.4 Y113.5 F1500
G1 X67.4 Y113.7 F1500
G1 X67.3 Y113.8 F1500
G1 X67.2 Y113.8 F1500
G1 X67.1 Y113.7 F1500
G1 X67.0 Y113.7 F1500
G1 X66.8 Y113.5 F1500
G1 X66.9 Y113.4 F1500
G1 X67.0 Y113.4 F1500
G1 X67.1 Y113.5 F1500
G1 X67.2 Y113.5 F1500
G1 X67.1 Y113.5 F1500
G1 X67.0 Y113.4 F1500
G1 X66.9 Y113.4 F1500
G1 X66.8 Y113.3 F1500
G1 X66.8 Y113.2 F1500
G1 X66.7 Y113.2 F1500
G1 X66.6 Y113.1 F1500
G1 X66.8 Y112.9 F1500
G1 X66.8 Y112.7 F1500
G0 Z5 F3000
G0 X68.3 Y112.6 F6000
G1 Z0 F1000
G1 X68.3 Y112.8 F1500
G1 X68.2 Y112.9 F1500
G1 X68.2 Y113.0 F1500
G1 X68.0 Y113.2 F1500
G1 X67.9 Y113.2 F1500
G1 X67.8 Y113.3 F1500
G1 X67.7 Y113.3 F1500
G1 X67.9 Y113.3 F1500
G1 X68.0 Y113.2 F1500
G1 X68.1 Y113.2 F1500
G1 X68.2 Y113.1 F1500
G1 X68.2 Y113.0 F1500
G1 X68.3 Y112.9 F1500
G0 Z5 F3000
G0 X62.9 Y112.6 F6000
G1 Z0 F1000
G1 X62.9 Y112.7 F1500
G1 X63.0 Y112.8 F1500
G1 X63.0 Y113.0 F1500
G1 X63.0 Y112.8 F1500
G1 X62.9 Y112.7 F1500
G0 Z5 F3000
G0 X53.8 Y112.6 F6000
G1 Z0 F1000
G1 X53.8 Y112.9 F1500
G1 X53.9 Y113.0 F1500
G1 X53.9 Y113.1 F1500
G1 X53.9 Y112.9 F1500
G1 X53.8 Y112.8 F1500
G1 X53.9 Y112.7 F1500
G1 X54.0 Y112.7 F1500
G1 X53.9 Y112.7 F1500
G0 Z5 F3000
G0 X65.6 Y112.4 F6000
G1 Z0 F1000
G1 X65.7 Y112.3 F1500
G1 X65.8 Y112.4 F1500
G1 X65.8 Y112.5 F1500
G1 X65.7 Y112.6 F1500
G1 X65.6 Y112.5 F1500
G0 Z5 F3000
G0 X53.2 Y112.4 F6000
G1 Z0 F1000
G1 X53.3 Y112.3 F1500
G1 X53.4 Y112.4 F1500
G1 X53.4 Y112.6 F1500
G1 X53.3 Y112.7 F1500
G1 X53.3 Y112.9 F1500
G1 X53.2 Y113.0 F1500
G1 X53.1 Y112.9 F1500
G1 X53.1 Y112.6 F1500
G1 X53.2 Y112.5 F1500
G0 Z5 F3000
G0 X53.1 Y112.3 F6000
G1 Z0 F1000
G1 X53.2 Y112.4 F1500
G1 X53.2 Y112.5 F1500
G1 X53.1 Y112.6 F1500
G1 X53.1 Y113.2 F1500
G1 X52.9 Y113.4 F1500
G1 X52.9 Y113.5 F1500
G1 X52.8 Y113.6 F1500
G1 X52.8 Y113.8 F1500
G1 X53.0 Y114.0 F1500
G1 X52.9 Y114.1 F1500
G1 X52.7 Y114.1 F1500
G1 X52.6 Y114.0 F1500
G1 X52.6 Y114.1 F1500
G1 X52.5 Y114.2 F1500
G1 X52.7 Y114.4 F1500
